!!!!SEGMENT: pl-wtm--r-1740-m--002-003_moniuszko-stanislaw--sonety-krymskie-zegluga.krn
!!!cenid: 18xx:2920
!!!COM: Moniuszko, Stanisław
!!!COM-rismID: pe30008351
!!!CDT: 1819/05/05-1872/06/04
!!!CNT: Polish
!!!GTL: Sonety krymskie
!!!OTL: Żegluga
!!!OMV: 003
!!!PDT:
!!!AGN: Secular; Sonnet
!!!SMS-siglum: PL-Wtm
!!!SMS-shelfmark: R 1740/M
!!!SMS-shelfwork: 002-003 G
!!!SMS-variant:
!!!SMS-altvar:
!!!NIFC-rismSourceID: 1001096355
!!!NIFC-rismChildID: 1001096355
!!!NIFC-islandoraID:
!!!URL-pdf-islandora:
!!!URL-scan:
!!!IIIF:
!!!ONB-nifc: UWAGA: w zbiorze 2 aranżacje Sonetów. Pliki nr 001-001-010 w obsadzie vl (2), vla, vlc,
!!!OMD: Allegro.
!!!AIN: 1 clars 1 cor 1 empty 1 fagot 1 flt 1 oboe 1 picco 1 timpa 1 tromp 2 tromt
!!!key:
**kern	**dynam	**kern	**dynam	**kern	**dynam	**kern	**dynam	**kern	**dynam	**kern	**dynam	**kern	**dynam	**kern	**dynam	**kern	**dynam	**kern	**kern	**dynam
*part11	*part11	*part10	*part10	*part9	*part9	*part8	*part8	*part7	*part7	*part6	*part6	*part5	*part5	*part4	*part4	*part3	*part3	*part2	*part1	*part1
*staff11	*	*staff10	*	*staff9	*	*staff8	*	*staff7	*	*staff6	*	*staff5	*	*staff4	*	*staff3	*	*staff2	*staff1	*
*Itimpa	*	*Itromt	*	*Itromt	*	*Itromp	*	*Iempty	*	*Icor	*	*Ifagot	*	*Iclars	*	*Ioboe	*	*Ipicco	*Iflt	*
*I"Timp:	*	*I"Trombone	*	*I"Tromboni.	*	*I"Trombe in C.	*	*I"in D.	*	*I"in F. Corni.	*	*I"Fag.	*	*I"in C. Clar.	*	*I"Oboi.	*	*I"Piccolo.	*I"Flauto.	*
*I'timp	*	*I'trb 3	*	*I'trb 1, 2	*	*I'tr	*	*I'cor 3, 4	*	*I'cor 1,2	*	*I'fg	*	*I'cl	*	*I'ob	*	*I'fl picc	*I'fl	*
*clefF4	*	*clefF4	*	*clefC4	*	*clefG2	*	*clefG2	*	*clefG2	*	*clefF4	*	*clefG2	*	*clefG2	*	*clefG2	*clefG2	*
*	*	*	*	*	*	*	*	*ITrd6c10	*	*ITrd4c7	*	*	*	*	*	*	*	*ITrd0c0	*	*
*k[]	*	*k[]	*	*k[]	*	*k[]	*	*k[]	*	*k[]	*	*k[]	*	*k[]	*	*k[]	*	*k[]	*k[]	*
*C:	*	*C:	*	*C:	*	*C:	*	*C:	*	*C:	*	*C:	*	*C:	*	*C:	*	*C:	*C:	*
*M4/4	*	*M4/4	*	*M4/4	*	*M4/4	*	*M4/4	*	*M4/4	*	*M4/4	*	*M4/4	*	*M4/4	*	*M4/4	*M4/4	*
*met(c)	*	*met(c)	*	*met(c)	*	*met(c)	*	*met(c)	*	*met(c)	*	*met(c)	*	*met(c)	*	*met(c)	*	*met(c)	*met(c)	*
=1	=1	=1	=1	=1	=1	=1	=1	=1	=1	=1	=1	=1	=1	=1	=1	=1	=1	=1	=1	=1
!!LO:TX:a:t=P:problem:all\right:global
!	!	!	!	!	!	!	!	!	!	!	!	!	!	!	!	!	!	!	!LO:TX:b:B:t=3/	!
!	!	!	!	!	!	!	!	!	!	!	!	!	!	!	!	!	!	!	!LO:TX:a:Bi:t=No 3. Żegluga.	!
!LO:TX:t=P:problem=w źródle przy kluczu dźwięki C GG	!	!	!	!LO:TX:a:t=3	!	!	!	!	!	!LO:TX:b:t=3	!	!	!	!	!	!LO:TX:b:B:t=3/	!	!	!	!
1ryy	.	1ryy	.	1ryy	.	1ryy	.	1ryy	.	1r	.	1ryy	.	1ryy	.	1ryy	.	1ryy	1ryy	.
=2	=2	=2	=2	=2	=2	=2	=2	=2	=2	=2	=2	=2	=2	=2	=2	=2	=2	=2	=2	=2
1ryy	.	1ryy	.	1ryy	.	1ryy	.	1ryy	.	1r	.	1ryy	.	1ryy	.	1ryy	.	1ryy	1ryy	.
=3	=3	=3	=3	=3	=3	=3	=3	=3	=3	=3	=3	=3	=3	=3	=3	=3	=3	=3	=3	=3
1ryy	.	1ryy	.	1ryy	.	1ryy	.	1ryy	.	1r	.	1ryy	.	1ryy	.	1ryy	.	1ryy	1ryy	.
=4	=4	=4	=4	=4	=4	=4	=4	=4	=4	=4	=4	=4	=4	=4	=4	=4	=4	=4	=4	=4
*	*	*	*	*	*	*	*	*	*	*^	*	*	*	*	*	*	*	*	*	*
*	*	*	*	*	*	*	*	*	*	*2\right	*2\right	*	*	*	*	*	*	*	*	*	*
!	!	!	!	!LO:TX:a:t=4	!	!	!	!	!	!	!	!	!	!	!	!	!	!	!	!	!
1ryy	.	1ryy	.	1ryy	.	1ryy	.	1ryy	.	2r	2ryy	p	1ryy	.	1ryy	.	1ryy	.	1ryy	1ryy	.
.	.	.	.	.	.	.	.	.	.	[2A^/	[2A\	.	.	.	.	.	.	.	.	.	.
=5	=5	=5	=5	=5	=5	=5	=5	=5	=5	=5	=5	=5	=5	=5	=5	=5	=5	=5	=5	=5	=5
*	*	*	*	*	*	*	*	*	*	*	*	*	*^	*	*	*	*	*	*	*	*
*	*	*	*	*	*	*	*	*	*	*	*	*	*2\right	*2\right	*	*	*	*	*	*	*	*
!	!	!	!	!LO:TX:a:t=5	!	!	!	!	!	!	!	!	!	!	!	!	!	!	!	!	!	!
1ryy	.	1ryy	.	1ryy	.	1ryy	.	1ryy	.	2A/]	2A\]	.	2r	2ryy	.	1ryy	.	1ryy	.	1ryy	1ryy	.
.	.	.	.	.	.	.	.	.	.	4A^/	4A\	.	4r	4ryy	.	.	.	.	.	.	.	.
!	!	!	!	!	!	!	!	!	!	!	!	!	!LO:TX:a:Bi:t=Soli:color=blue	!	!	!	!	!	!	!	!	!
.	.	.	.	.	.	.	.	.	.	4r	4ryy	.	8r	8ryy	mf	.	.	.	.	.	.	.
.	.	.	.	.	.	.	.	.	.	.	.	.	16A/LL	16A\LL	.	.	.	.	.	.	.	.
.	.	.	.	.	.	.	.	.	.	.	.	.	16B-X/JJ	16B-\JJ	.	.	.	.	.	.	.	.
*	*	*	*	*	*	*	*	*	*	*v	*v	*	*	*	*	*	*	*	*	*	*	*
=6	=6	=6	=6	=6	=6	=6	=6	=6	=6	=6	=6	=6	=6	=6	=6	=6	=6	=6	=6	=6	=6
!	!	!	!	!LO:TX:a:t=6	!	!	!	!	!	!	!	!	!	!	!	!	!	!	!	!	!
1ryy	.	1ryy	.	1ryy	.	1ryy	.	1ryy	.	1ryy	.	[1B-X	[1B-	.	1ryy	.	1ryy	.	1ryy	1ryy	.
=7	=7	=7	=7	=7	=7	=7	=7	=7	=7	=7	=7	=7	=7	=7	=7	=7	=7	=7	=7	=7	=7
!	!	!	!	!LO:TX:a:t=7	!	!	!	!	!	!	!	!	!	!	!	!	!	!	!	!	!
1ryy	.	1ryy	.	1ryy	.	1ryy	.	1ryy	.	1ryy	.	1B-_	1B-_	.	1ryy	.	1ryy	.	1ryy	1ryy	.
=8	=8	=8	=8	=8	=8	=8	=8	=8	=8	=8	=8	=8	=8	=8	=8	=8	=8	=8	=8	=8	=8
!	!	!	!	!LO:TX:a:t=8	!	!	!	!	!	!	!	!	!	!	!	!	!	!	!	!	!
1ryy	.	1ryy	.	1ryy	.	1ryy	.	1ryy	.	1ryy	.	1B-_	1B-_	.	1ryy	.	1ryy	.	1ryy	1ryy	.
=9	=9	=9	=9	=9	=9	=9	=9	=9	=9	=9	=9	=9	=9	=9	=9	=9	=9	=9	=9	=9	=9
!	!	!	!	!LO:TX:a:t=9	!	!	!	!	!	!	!	!	!	!	!	!	!	!	!	!	!
1ryy	.	1ryy	.	1ryy	.	1ryy	.	1ryy	.	1ryy	.	(4B-/]	(4B-\]	.	1ryy	.	1ryy	.	1ryy	1ryy	.
.	.	.	.	.	.	.	.	.	.	.	.	4A/)	4A\)	.	.	.	.	.	.	.	.
.	.	.	.	.	.	.	.	.	.	.	.	2r	2ryy	.	.	.	.	.	.	.	.
*	*	*	*	*	*	*	*	*	*	*	*	*v	*v	*	*	*	*	*	*	*	*
=10	=10	=10	=10	=10	=10	=10	=10	=10	=10	=10	=10	=10	=10	=10	=10	=10	=10	=10	=10	=10
!	!	!LO:TX:a:B:t=4/	!	!	!	!	!	!LO:TX:a:B:t=4/	!	!	!	!LO:TX:a:B:t=4/	!	!	!	!LO:TX:b:B:t=4/	!	!	!LO:TX:b:B:t=4/	!
1ryy	.	1ryy	.	1ryy	.	1ryy	.	1ryy	.	1ryy	.	1ryy	.	1ryy	.	1ryy	.	1ryy	1ryy	.
=11	=11	=11	=11	=11	=11	=11	=11	=11	=11	=11	=11	=11	=11	=11	=11	=11	=11	=11	=11	=11
1ryy	.	1ryy	.	1ryy	.	1ryy	.	1ryy	.	1ryy	.	1ryy	.	1ryy	.	1ryy	.	1ryy	1ryy	.
=12	=12	=12	=12	=12	=12	=12	=12	=12	=12	=12	=12	=12	=12	=12	=12	=12	=12	=12	=12	=12
1ryy	.	1ryy	.	1ryy	.	1ryy	.	1ryy	.	1ryy	.	1ryy	.	1ryy	.	1ryy	.	1ryy	1ryy	.
=13	=13	=13	=13	=13	=13	=13	=13	=13	=13	=13	=13	=13	=13	=13	=13	=13	=13	=13	=13	=13
1ryy	.	1ryy	.	1ryy	.	1ryy	.	1ryy	.	1ryy	.	1ryy	.	1ryy	.	1ryy	.	1ryy	1ryy	.
=14	=14	=14	=14	=14	=14	=14	=14	=14	=14	=14	=14	=14	=14	=14	=14	=14	=14	=14	=14	=14
*	*	*	*	*	*	*	*	*	*	*	*	*	*	*^	*	*	*	*	*^	*
*	*	*	*	*	*	*	*	*2\right	*	*	*	*	*	*2\right	*2\right	*	*2\right	*	*	*2\right	*2\right	*
!	!	!	!	!	!	!	!	!	!	!	!	!	!	!	!	!	!	!	!	!LO:TX:b:t=Fl.\nPicc.:color=blue	!	!
!LO:TX:t=P:problem=dla t. 14-17 brak pięciolinii	!	!	!	!	!	!	!	!	!	!	!	!	!	!	!	!	!	!	!	!LO:TX:t=P:problem=fl i picc zapisane na jednej linii	!	!
1r	.	1r	.	1r	.	1r	.	4d 4D^/	.	4f 4A^/	f	(4D (4DD/	f	(4ff (4dd^/	2ryy	f	(4aa 4ff^\	f	1ryy	4ddd^/	4ddd\	f
.	.	.	.	.	.	.	.	8dL 8D'/	.	8fL 8A'/	.	8AL 8D\))	.	8dd 8f/))	.	.	8ffL 8dd\)	.	.	8aa/L	8aa\L	.
.	.	.	.	.	.	.	.	16r	.	16r	.	16r	.	16r	.	.	16r	.	.	16raa	16rcccyy	.
.	.	.	.	.	.	.	.	16dJk 16D/	.	16fJk 16A/	.	16dJk 16D\	.	16aa 16ff\	.	.	16ffJk 16a\	.	.	16aa/Jk	16aa\Jk	.
.	.	.	.	.	.	.	.	4d 4D^/	.	4f 4A^/	.	4d 4D\	.	(4aa (4ff\	4ryy	.	(4ff (4a/	.	.	4aa^/	4aa\	.
.	.	.	.	.	.	.	.	8dL 8D'/	.	8fL 8A'/	.	8AL 8D\	.	8ff/L))	8dd\L	.	8ddL 8f/))	.	.	8ff/	8ff\L	.
.	.	.	.	.	.	.	.	16r	.	16r	.	16r	.	16r	16ryy	.	16r	.	.	16raa	16rffyy	.
!	!	!	!	!	!	!	!	!	!	!	!	!	!	!LO:SIC:v:s=b-	!	!	!LO:SIC:v:s=bb-	!	!	!	!	!
.	.	.	.	.	.	.	.	16dJk 16D/	.	16dJk 16B-/	.	16B-XJk 16D\	.	16gg/Jk	16b\Jk	.	16bbJk 16dd/	.	.	16ddd/	16ddd\Jk	.
*	*	*	*	*	*	*	*	*	*	*	*	*	*	*v	*v	*	*	*	*	*	*	*
=15	=15	=15	=15	=15	=15	=15	=15	=15	=15	=15	=15	=15	=15	=15	=15	=15	=15	=15	=15	=15	=15
*	*	*2\right	*	*2\right	*	*2\right	*	*	*	*	*	*	*	*	*	*	*	*	*	*	*
!	!	!	!	!	!	!	!	!	!	!	!	!	!	!LO:SIC:v:s=b-	!	!	!	!	!	!	!
1r	.	2r	.	2r	.	2r	.	4d 4D^/	.	(4d (4B-/	.	(4B-X 4D^\	.	4gg 4b/	.	(4bb-X 4dd\	.	1ryy	(4ddd/	(4ddd\	.
.	.	.	.	.	.	.	.	8dL 8D'/	.	8cL 8A/))	.	8AL 8D'\)	.	8aaL 8cc/	.	8aaL 8cc'\)	.	.	4ryy	8ccc'\L))	.
!	!	!	!	!	!	!	!	!	!	!	!	!	!	!LO:SIC:v:s=b-	!	!	!	!	!	!	!
.	.	.	.	.	.	.	.	8dJ 8D'/	.	8B-J 8G/	.	8GJ 8D'\	.	8ggJ 8b/	.	8ggJ 8b-X'\	.	.	.	8bb-X'\J	.
.	.	4r	.	4r	.	4r	.	8dL 8D^^/	.	8AL 8F^^/	.	8AL 8D^^\	.	8ffL 8a/	.	8ffL 8a^^\	.	.	8aa^^/L	8aa\L	.
.	.	.	.	.	.	.	.	8dJ 8D^^/	.	8AJ 8F^^/	.	8dJ 8D^^\	.	8ffJ 8dd/	.	8aaJ 8ff^^\	.	.	8ddd^^/J	8ddd\J	.
.	.	8r	f	8r	f	8r	f	4r	.	4r	.	8r	.	8r	.	8r	.	.	8r	4ryy	.
!	!	!LO:TX:a:t=|:problem	!	!LO:TX:a:t=|:problem	!	!	!	!	!	!	!	!	!	!	!	!LO:TX:a:t=|:problem	!	!	!LO:TX:b:t=Piccolo col Flauto.:color=blue	!	!
.	.	8B-X\	.	8e 8d\	.	8ee 8g#X'/	.	.	.	.	.	8d 8B-'\	.	8ee 8g#X'/	.	8gg#X 8dd\	.	.	(16eee\LL	.	.
.	.	.	.	.	.	.	.	.	.	.	.	.	.	.	.	.	.	.	16fff\JJ	.	.
*	*	*	*	*	*	*	*	*	*	*	*	*	*	*	*	*	*	*	*v	*v	*
=16	=16	=16	=16	=16	=16	=16	=16	=16	=16	=16	=16	=16	=16	=16	=16	=16	=16	=16	=16	=16
!	!	!	!	!	!	!	!	!	!	!	!	!LO:SIC:v:s=B-	!	!	!	!	!	!	!	!
1r	.	4.B-X^\	.	4.e 4.d^\	.	4.ee 4.g#X^/	.	1r	.	1r	.	4.d 4.B^\	.	4.ee 4.g#X^/	.	4.gg#X 4.dd^\	.	1r	4.ggg^\)	.
!	!	!	!	!	!	!	!	!	!	!	!	!LO:SIC:v:s=B-	!	!	!	!LO:TX:a:t=|:problem	!	!	!	!
.	.	8B-'\	.	8e 8d\	.	8ee 8g#'/	.	.	.	.	.	8d 8B\	.	8ee 8g#'/	.	8gg# 8dd\	.	.	(16eee\LL	.
.	.	.	.	.	.	.	.	.	.	.	.	.	.	.	.	.	.	.	16fff\JJ)	.
!	!	!	!	!	!	!	!	!	!	!	!	!LO:SIC:v:s=B-	!	!	!	!	!	!	!	!
.	.	4.B-^\	.	4.e 4.d^\	.	4.ee 4.g#^/	.	.	.	.	.	4.d 4.B\	.	4.ee 4.g#^/	.	4.gg# 4.dd^\	.	.	4.eee^\	.
!	!	!	!	!LO:TX:a:t=|:problem	!	!	!	!	!	!	!	!	!	!	!	!	!	!	!LO:TX:a:t=|:problem	!
.	.	8A'\	.	8e 8c#X\	.	8ee 8a'/	.	.	.	.	.	8e 8A\	.	8ee 8a/	.	8aa 8cc#X'\	.	.	8eee\	.
=17	=17	=17	=17	=17	=17	=17	=17	=17	=17	=17	=17	=17	=17	=17	=17	=17	=17	=17	=17	=17
!	!	!	!	!	!	!	!	!	!	!	!	!	!	!	!	!	!	!	!LO:TX:a:t=|:problem	!
1r	.	8A^^\	.	8e 8c#X^^\	.	8ee 8a^^/	.	1r	.	1r	.	8e 8A\	.	8aa 8cc#X\	.	8aa 8cc#X^\	.	1r	8aaa\	.
.	.	8r	.	8r	.	8r	.	.	.	.	.	8r	.	8r	.	8r	.	.	8r	.
.	.	4r	.	4r	.	4r	.	.	.	.	.	4r	.	4r	.	4r	.	.	4r	.
.	.	2r	.	2r	.	2r	.	.	.	.	.	2r	.	2r	.	2r	.	.	2r	.
=18	=18	=18	=18	=18	=18	=18	=18	=18	=18	=18	=18	=18	=18	=18	=18	=18	=18	=18	=18	=18
*	*	*	*	*	*	*	*	*	*	*	*	*^	*	*	*	*	*	*	*^	*
!	!	!	!	!	!	!	!	!	!	!	!	!	!	!	!	!	!	!	!	!LO:TX:t=P:problem=fl i picc zapisane na jednej linii	!	!
1r	.	1r	.	1r	.	1r	.	4fX 4A^^\	f	4c 4F^^/	f	(4F (4FF^^/	2ryy	f	(4aa (4cc\	f	(4aa (4cc^^\	f	1ryy	(4ccc^^/	(4aa\	f
.	.	.	.	.	.	.	.	8fL 8A\	.	8cL 8F/	.	8c 8F\))	.	.	8ffL 8a\))	.	8ffL 8a\))	.	.	8aa/L)	8ff\L)	.
.	.	.	.	.	.	.	.	16r	.	16r	.	16r	.	.	16r	.	16r	.	.	16rff	16ryy	.
.	.	.	.	.	.	.	.	16fJk 16A\	.	16cJk 16F/	.	16F 16FF/	.	.	16ffJk 16a\	.	16aaJk 16cc\	.	.	16aa/Jk	16ff\Jk	.
.	.	.	.	.	.	.	.	4f 4A^^\	.	4c 4F^^/	.	(4F (4FF^^/	4ryy	.	(4ff 4a^^\	.	(4aa (4cc^^\	.	.	(4aa^^/	(4ff\	.
.	.	.	.	.	.	.	.	8fL 8A\	.	8cL 8F/	.	8c 8F\))	8ryy	.	8ccL 8a\)	.	8ff 8a\))	.	.	8ccc/L)	8cc\L)	.
.	.	.	.	.	.	.	.	16r	.	16r	.	16r	16ryy	.	16r	.	16r	.	.	16rdd	16ryy	.
.	.	.	.	.	.	.	.	16fJk 16d\	.	16fJk 16F/	.	16F/	16F\	.	16ffJk 16dd\	.	16ff 16dd\	.	.	16ddd/Jk	16ff\Jk	.
=19	=19	=19	=19	=19	=19	=19	=19	=19	=19	=19	=19	=19	=19	=19	=19	=19	=19	=19	=19	=19	=19	=19
*	*	*	*	*	*	*	*	*^	*	*	*	*	*	*	*^	*	*	*	*	*	*	*
1r	.	2r	.	2r	.	2r	.	4fX/	4d\	.	(4f 4F/	.	(4d 4F\	2ryy	.	4ff^/	(4dd\	.	(4ff (4dd^\	.	1ryy	4ddd^/	(4ff^\	.
!	!	!	!	!	!	!	!	!LO:TX:a:t=|:problem	!	!	!LO:TX:a:t=|:problem	!	!	!	!	!LO:TX:a:t=|:problem	!	!	!LO:TX:a:t=|:problem	!	!	!LO:TX:a:t=|:problem	!	!
.	.	.	.	.	.	.	.	8f/L	8cX\L	.	8eL 8F/)	.	8cL 8F'\)	.	.	8ff/L	8cc\L)	.	8eeL 8cc\))	.	.	8ccc/L	8ee'\L)	.
!	!	!	!	!	!	!	!	!LO:TX:a:t=|:problem	!	!	!LO:TX:a:t=|:problem	!	!LO:SIC:v:s=B-	!	!	!LO:TX:a:t=|:problem	!	!	!LO:TX:a:t=|:problem	!	!	!LO:TX:a:t=|:problem	!	!
.	.	.	.	.	.	.	.	8f/J	8B-X\J	.	8dJ 8F/	.	8BJ 8F'\	.	.	8ff/J	8b-X\J	.	8ddJ 8b-X\	.	.	8bb-X/J	8dd'\J	.
.	.	4r	.	4r	.	4r	.	8f/L	8A\L	.	8cL 8F/	.	8cL 8F^^/	8F\L	.	8ff^^/L	8a\L	.	8ccL 8a^^\	.	.	8aa^^/L	8cc\L	.
.	.	.	.	.	.	.	.	8f/J	8A\J	.	8cJ 8F/	.	8F^^/J	8F\J	.	8ff^^/J	8a\J	.	8aaJ 8cc^^\	.	.	8aa^^/J	8ff\J	.
.	.	8r	f	8r	f	8r	.	4r	4ryy	.	4r	.	8r	8rGGyy	.	8r	8ryy	.	8r	.	.	8r	8ryy	.
.	.	8D'\	.	8f 8G'\	.	8bn 8g'/	f	.	.	.	.	.	8d/	8d\	.	(16gg/LL	8ff\	.	8bbn 8dd'\	.	.	8fff/	(16gg\LL	.
.	.	.	.	.	.	.	.	.	.	.	.	.	.	.	.	16aa/JJ	.	.	.	.	.	.	16aa\JJ	.
*	*	*	*	*	*	*	*	*v	*v	*	*	*	*	*	*	*	*	*	*	*	*	*	*	*
=20	=20	=20	=20	=20	=20	=20	=20	=20	=20	=20	=20	=20	=20	=20	=20	=20	=20	=20	=20	=20	=20	=20	=20
1r	.	4.D^\	.	4.f 4.G^\	.	4.b 4.g^/	.	1r	.	1r	.	4.d/	4.d\	.	4.gg/)	4.ff\	.	4.bb 4.dd^\	.	1ryy	4.fff^/	4.gg^\)	.
!	!	!LO:TX:a:t=|:problem	!	!LO:TX:a:t=|:problem	!	!	!	!	!	!	!	!	!	!	!	!	!	!	!	!	!	!	!
.	.	8D\	.	8f 8G\	.	8b 8g/	.	.	.	.	.	8d/	8d\	.	(16gg/LL	8ff\	.	8bb 8dd'\	.	.	8fff/	(16gg\LL	.
.	.	.	.	.	.	.	.	.	.	.	.	.	.	.	16aa/JJ	.	.	.	.	.	.	16aa\JJ)	.
.	.	4.D^\	.	4.f 4.G^\	.	4.b 4.g^/	.	.	.	.	.	4.d/	4.d\	.	4.gg/)	4.ff\	.	4.bb 4.dd^\	.	.	4.fff^/	4.gg^\	.
!	!	!LO:TX:a:t=|:problem	!	!	!	!	!	!	!	!	!	!	!	!	!	!	!	!	!	!	!	!	!
.	.	8C\	.	8e 8G\	.	8cc 8g'/	.	.	.	.	.	8c/	8c\	.	8gg/	8ee\	.	8ccc 8cc'\	.	.	8eee/	8gg\	.
=21	=21	=21	=21	=21	=21	=21	=21	=21	=21	=21	=21	=21	=21	=21	=21	=21	=21	=21	=21	=21	=21	=21	=21
1r	.	8C'/	.	8e 8G'\	.	8cc 8g'/	.	1r	.	1r	.	8c/	8c\	.	8ccc/	8ee\	.	8gg 8cc\	.	1ryy	8eee/	8ccc\	.
.	.	8r	.	8r	.	8r	.	.	.	.	.	8r	8ryy	.	8r	8ryy	.	8r	.	.	8r	8ryy	.
.	.	4r	.	4r	.	4r	.	.	.	.	.	4r	4ryy	.	4r	4ryy	.	4r	.	.	4r	4ryy	.
.	.	2r	.	2r	.	2r	.	.	.	.	.	2r	2ryy	.	2r	2ryy	.	2r	.	.	2r	2ryy	.
*	*	*	*	*	*	*	*	*	*	*	*	*	*	*	*v	*v	*	*	*	*	*	*	*
=22	=22	=22	=22	=22	=22	=22	=22	=22	=22	=22	=22	=22	=22	=22	=22	=22	=22	=22	=22	=22	=22	=22
1r	.	4A\	ff	4e 4c\	ff	4ee 4cc^^\	ff	4a 4e^^\	ff	4a 4A^^/	ff	4A/	4A\	ff	4aa 4cc\	ff	4ccc 4ee^^\	ff	1ryy	4eee/	4ccc\	ff
!	!	!	!	!	!	!	!	!LO:TX:a:t=|:problem	!	!	!	!	!	!	!	!	!	!	!	!	!	!
.	.	4r	.	4r	.	8eeL 8cc'\	.	8aL 8e\	.	8aL 8A'/	.	8A/L	8A\L	.	8eeL 8cc'\	.	8aaL 8cc'\	.	.	8ccc'/L	8aa\L	.
!	!	!	!	!	!	!LO:TX:a:t=|:problem	!	!LO:TX:a:t=|:problem	!	!	!	!	!	!	!	!	!	!	!	!	!	!
.	.	.	.	.	.	8eeJ 8cc\	.	8aJ 8e\	.	8aJ 8A'/	.	8A/J	8A\J	.	8aaJ 8cc'\	.	8eeJ 8cc'\	.	.	8ccc'/J	8ee\J	.
!	!	!LO:TX:a:t=|:problem	!	!	!	!	!	!	!	!	!	!	!	!	!	!	!	!	!	!	!	!
.	.	.	.	.	.	.	.	.	.	.	.	.	.	.	.	.	(8qgg 8qee/	.	.	8qeee/	8qgg/	.
.	.	8d\L	.	8fL 8d\	.	8ffL 8dd\	.	8aL 8d^^\	.	8aL 8A^^/	.	8d^^/L	8d\L	.	8aaL 8dd^^\	.	8ffL 8dd^^\)	.	.	8ddd^^/L	8ff\L	.
.	.	8A'\J	.	8eJ 8c\	.	8eeJ 8cc\	.	8aJ 8cX^^\	.	8aJ 8A^^/	.	8A^^/J	8A\J	.	8aaJ 8cc^^\	.	8eeJ 8cc^^\	.	.	8ccc^^/J	8ee\J	.
.	.	4r	.	4r	.	4r	.	4r	.	4r	.	4ryy	4ryy	.	4ryy	.	4r	.	.	4r	4ryy	.
=23	=23	=23	=23	=23	=23	=23	=23	=23	=23	=23	=23	=23	=23	=23	=23	=23	=23	=23	=23	=23	=23	=23
*	*	*	*	*	*	*	*	*^	*	*	*	*	*	*	*	*	*^	*	*	*	*	*
1r	.	4AA/	.	4c 4E/	.	4ee 4a\	.	4e 4A/	2ryy	.	4a 4A^^/	.	4AA^^/	4AA\	.	4aa 4cc^^\	.	4aa 4cc^^\	2ryy	.	1ryy	4ccc^^/	4aa\	.
!	!	!	!	!	!	!LO:TX:b:t=|:problem	!	!	!	!	!	!	!LO:TX:a:t=|:problem	!	!	!LO:TX:a:t=|:problem	!	!	!	!	!	!	!	!
.	.	4r	.	4r	.	8ccL 8a/	.	8eL 8A'/	.	.	8aL 8A'/	.	8AA/L	8AA\L	.	8eeL 8cc\	.	8eeL 8cc'\	.	.	.	8ccc'/L	8ee\L	.
!	!	!	!	!	!	!LO:TX:b:t=|:problem	!	!	!	!	!	!	!LO:TX:a:t=|:problem	!	!	!LO:TX:a:t=|:problem	!	!	!	!	!	!	!	!
.	.	.	.	.	.	8ccJ 8a/	.	8eJ 8A'/	.	.	8aJ 8A'/	.	8AA/J	8AA\J	.	8eeJ 8cc\	.	8aaJ 8cc'\	.	.	.	8aa'/J	8cc\J	.
.	.	.	.	.	.	.	.	.	.	.	.	.	.	.	.	.	.	.	.	.	.	8qccc/	8qee/	.
.	.	8D^^/L	.	8AL 8F^^/	.	8ddL 8f^^/	.	8fXL 8d^^\	4ryy	.	8aL 8A^^/	.	8D^^/L	8D\L	.	8ffL 8a^^\	.	8aaL 8dd^^\	4ryy	.	.	8ddd^^/L	8dd\L	.
.	.	8AA^^/J	.	8cJ 8E^^/	.	8ccJ 8e^^/	.	8eJ 8cX^^\	.	.	8aJ 8A^^/	.	8AA^^/J	8AA\J	.	8eeJ 8g^^\	.	8aaJ 8cc^^\	.	.	.	8ccc^^/J	8cc\J	.
.	.	4r	.	4r	.	4r	.	8r	8ryy	.	8r	.	8r	8ryy	.	4r	.	8r	8ryy	.	.	4r	8r	.
.	.	.	.	.	.	.	.	(16c/LL	16cX\LL	.	8B- 8G'/	.	8E/	8E\	.	.	.	(16cc/LL	16cc\LL	.	.	.	(16cc\LL	.
.	.	.	.	.	.	.	.	16d/JJ	16d\JJ	.	.	.	.	.	.	.	.	16dd/JJ	16dd\JJ	.	.	.	16dd\JJ	.
=24	=24	=24	=24	=24	=24	=24	=24	=24	=24	=24	=24	=24	=24	=24	=24	=24	=24	=24	=24	=24	=24	=24	=24	=24
1r	.	1r	.	1r	.	1r	.	4.c^/)	4.cX\	.	4.B- 4.G^/	.	4.E^/	4.E\	.	1r	.	4.cc^/)	4.cc\	.	1ryy	1rff	4.cc^\)	.
.	.	.	.	.	.	.	.	(16c/LL	16c\LL	.	8B- 8G/	.	8E/	8E\	.	.	.	(16cc/LL	16cc\LL	.	.	.	(16cc\LL	.
.	.	.	.	.	.	.	.	16d/JJ	16d\JJ	.	.	.	.	.	.	.	.	16dd/JJ	16dd\JJ	.	.	.	16dd\JJ	.
.	.	.	.	.	.	.	.	4.c^/)	4.c\	.	4.B- 4.G^/	.	4.E^/	4.E\	.	.	.	4.cc^/)	4.cc\	.	.	.	4.cc^\)	.
.	.	.	.	.	.	.	.	(16c/LL	16c\LL	.	8A 8F/	.	8F/	8F\	.	.	.	(16cc/LL	16cc\LL	.	.	.	(16cc\LL	.
.	.	.	.	.	.	.	.	16d/JJ)	16d\JJ	.	.	.	.	.	.	.	.	16dd/JJ)	16dd\JJ	.	.	.	16dd\JJ)	.
*	*	*	*	*	*	*	*	*	*	*	*	*	*v	*v	*	*	*	*	*	*	*	*v	*v	*
=25	=25	=25	=25	=25	=25	=25	=25	=25	=25	=25	=25	=25	=25	=25	=25	=25	=25	=25	=25	=25	=25	=25
*	*	*	*	*	*	*^	*	*	*	*	*	*	*	*	*^	*	*	*	*	*	*	*
1ryy	.	2r	.	2r	.	2r	2ryy	.	8c/L	8cX\L	.	8AL 8F/	.	1r	.	2r	2ryy	.	8cc'/L	8cc\L	.	1ryy	1ryy	.
.	.	.	.	.	.	.	.	.	8c/	8c\	.	8A 8F/	.	.	.	.	.	.	8ff'/	8a\	.	.	.	.
.	.	.	.	.	.	.	.	.	8c/	8c\	.	8A 8F/	.	.	.	.	.	.	8aa'/	8cc\	.	.	.	.
.	.	.	.	.	.	.	.	.	8c/J	8c\J	.	8AJ 8F/	.	.	.	.	.	.	8ff'/J	8a\J	.	.	.	.
.	.	4r	.	4r	.	4r	4ryy	.	8c/L	8c\L	.	8AL 8F/	.	.	.	4r	4ryy	.	8cc'/L	8a\L	.	.	.	.
.	.	.	.	.	.	.	.	.	8c/	8c\	.	8A 8F/	.	.	.	.	.	.	8f'/	8f\	.	.	.	.
.	.	8.r	mf	8.r	mf	8.r	8.ryy	mf mf	8c/J	8c\J	.	8AJ 8F/	.	.	.	8r	8ryy	.	8a'/J	8f\J	.	.	.	.
.	.	.	.	.	.	.	.	.	8r	8ryy	.	8r	.	.	.	(16a/LL	16a\LL	.	8r	8ryy	.	.	.	.
.	.	16D\	.	16f 16G\	.	16f/	16d\	.	.	.	.	.	.	.	.	16b-X/JJ	16b-\JJ	.	.	.	.	.	.	.
*	*	*	*	*	*	*	*	*	*v	*v	*	*	*	*	*	*	*	*	*v	*v	*	*	*	*
=26	=26	=26	=26	=26	=26	=26	=26	=26	=26	=26	=26	=26	=26	=26	=26	=26	=26	=26	=26	=26	=26	=26
1ryy	.	4.C#X^\	.	4.e 4.A^\	.	4.g^/	4.e\	.	1r	.	1r	.	1r	.	4.a/)	4.a\	.	1r	.	1ryy	1ryy	.
.	.	8D\	.	8f 8A\	.	8f 8d/	8ryy	.	.	.	.	.	.	.	(16a/LL	16a\LL	.	.	.	.	.	.
.	.	.	.	.	.	.	.	.	.	.	.	.	.	.	16b-X/JJ	16b-\JJ	.	.	.	.	.	.
.	.	4.C#^\	.	4.e 4.A^\	.	4.g 4.e^/	2ryy	.	.	.	.	.	.	.	4.a/)	4.a\	.	.	.	.	.	.
.	.	8D\	.	8f 8A\	.	8f 8d/	.	.	.	.	.	.	.	.	(16a/LL	16a\LL	.	.	.	.	.	.
.	.	.	.	.	.	.	.	.	.	.	.	.	.	.	16b-/JJ	16b-\JJ	.	.	.	.	.	.
*	*	*	*	*	*	*v	*v	*	*	*	*	*	*	*	*	*	*	*	*	*	*	*
=27	=27	=27	=27	=27	=27	=27	=27	=27	=27	=27	=27	=27	=27	=27	=27	=27	=27	=27	=27	=27	=27
*	*	*	*	*	*	*	*	*	*	*^	*	*	*	*	*	*	*	*	*	*	*
1ryy	.	8D'\L	.	8fL 8A'\	.	8fL 8d'/	.	2r	.	2r	2ryy	.	1r	.	8a/L)	8a\L	.	1r	.	1ryy	1ryy	.
.	.	8D'\	.	8f 8A'\	.	8f 8d'/	.	.	.	.	.	.	.	.	8dd'/	8f\	.	.	.	.	.	.
.	.	8D'\	.	8f 8A'\	.	8f 8d'/	.	.	.	.	.	.	.	.	8ff'/	8a\	.	.	.	.	.	.
.	.	8D'\J	.	8fJ 8A'\	.	8fJ 8d'/	.	.	.	.	.	.	.	.	8dd'/J	8f\J	.	.	.	.	.	.
.	.	8D\L	.	8fL 8A'\	.	8d/	.	4r	.	4r	4ryy	.	.	.	8a'/L	8f\L	.	.	.	.	.	.
.	.	8D'\	.	8d 8E'\	.	8r	.	.	.	.	.	.	.	.	8d'/	8d\	.	.	.	.	.	.
.	.	8D\J	.	8dJ 8E'\	.	4r	.	8r	mf	8r	8ryy	mf	.	.	8f'/J	8d\J	.	.	.	.	.	.
.	.	8r	.	8r	.	.	.	8d 8D/	.	(16f/LL	8F\	.	.	.	8A/	8A\	.	.	.	.	.	.
.	.	.	.	.	.	.	.	.	.	16g/JJ)	.	.	.	.	.	.	.	.	.	.	.	.
*	*	*	*	*	*	*	*	*	*	*	*	*	*	*	*v	*v	*	*	*	*	*	*
=28	=28	=28	=28	=28	=28	=28	=28	=28	=28	=28	=28	=28	=28	=28	=28	=28	=28	=28	=28	=28	=28
*	*	*	*	*	*	*	*	*	*	*	*	*	*^	*	*	*	*	*	*	*	*
!	!	!	!	!	!	!	!	!	!	!	!	!	!	!	!	!LO:TX:a:t=a due	!	!	!	!	!	!
1r	.	1r	.	1r	.	1r	.	4.d 4.D^/	.	4.f^/	4.F\	.	8r	8ryy	.	4.B^/	.	1r	.	1r	1r	.
.	.	.	.	.	.	.	.	.	.	.	.	.	(16F^/LL	16F\LL	.	.	.	.	.	.	.	.
.	.	.	.	.	.	.	.	.	.	.	.	.	16G/JJ	16G\JJ	.	.	.	.	.	.	.	.
.	.	.	.	.	.	.	.	.	.	.	.	.	8F/)	8F\	.	.	.	.	.	.	.	.
.	.	.	.	.	.	.	.	8d 8D/	.	(16f/LL	8F\	.	8r	8ryy	.	8A/	.	.	.	.	.	.
.	.	.	.	.	.	.	.	.	.	16g/JJ	.	.	.	.	.	.	.	.	.	.	.	.
.	.	.	.	.	.	.	.	4.d 4.D^/	.	4.f^/)	4.F\	.	8r	8ryy	.	4.B^/	.	.	.	.	.	.
.	.	.	.	.	.	.	.	.	.	.	.	.	(16F^/LL	16F\LL	.	.	.	.	.	.	.	.
.	.	.	.	.	.	.	.	.	.	.	.	.	16G/JJ	16G\JJ	.	.	.	.	.	.	.	.
.	.	.	.	.	.	.	.	.	.	.	.	.	8F/)	8F\	.	.	.	.	.	.	.	.
.	.	.	.	.	.	.	.	8d 8D/	.	(16f/LL	8F\	.	8r	8ryy	.	8A/	.	.	.	.	.	.
.	.	.	.	.	.	.	.	.	.	16g/JJ	.	.	.	.	.	.	.	.	.	.	.	.
*	*	*	*	*	*	*	*	*	*	*v	*v	*	*	*	*	*	*	*	*	*	*	*
=29	=29	=29	=29	=29	=29	=29	=29	=29	=29	=29	=29	=29	=29	=29	=29	=29	=29	=29	=29	=29	=29
1r	.	1r	.	1r	.	1r	.	8dL 8D/	.	8fL 8F/)	.	8.BB-X^/L	8.BB-\L	.	8.B-X^/L	.	1r	.	1r	1r	.
.	.	.	.	.	.	.	.	16r	.	16r	.	.	.	.	.	.	.	.	.	.	.
.	.	.	.	.	.	.	.	16dJk 16D/	.	16fJk 16F/	.	16AA/K	16AA\K	.	16A/K	.	.	.	.	.	.
.	.	.	.	.	.	.	.	8dL 8D/	.	8fL 8F/	.	8.GG#X/	8.GG#\	.	8.G#X/	.	.	.	.	.	.
.	.	.	.	.	.	.	.	16r	.	16r	.	.	.	.	.	.	.	.	.	.	.
.	.	.	.	.	.	.	.	16dJk 16D/	.	16fJk 16F/	.	16AA/Jk	16AA\Jk	.	16A/Jk	.	.	.	.	.	.
.	.	.	.	.	.	.	.	8dL 8D/	.	8fL 8F/	.	8.BB-/L	8.BB-\L	.	8.B-/L	.	.	.	.	.	.
.	.	.	.	.	.	.	.	16r	.	16r	.	.	.	.	.	.	.	.	.	.	.
.	.	.	.	.	.	.	.	16dJk 16D/	.	16fJk 16F/	.	16AA/K	16AA\K	.	16A/K	.	.	.	.	.	.
.	.	.	.	.	.	.	.	8dL 8D/	.	8fL 8F/	.	8.GG#/	8.GG#\	.	8.G#X/	.	.	.	.	.	.
.	.	.	.	.	.	.	.	16r	.	16r	.	.	.	.	.	.	.	.	.	.	.
.	.	.	.	.	.	.	.	16dJk 16D/	.	16fJk 16F/	.	16AA/Jk	16AA\Jk	.	16A/Jk	.	.	.	.	.	.
*	*	*	*	*	*	*	*	*	*	*	*	*v	*v	*	*	*	*	*	*	*	*
=30	=30	=30	=30	=30	=30	=30	=30	=30	=30	=30	=30	=30	=30	=30	=30	=30	=30	=30	=30	=30
*	*	*	*	*	*	*	*	*	*	*	*	*	*	*^	*	*	*	*	*	*
1r	.	1r	.	1r	.	1r	.	4d 4D/	.	4f 4F/	.	(4d 4D^\	.	2f 2d^/	2ryy	.	1r	.	1r	1r	.
.	.	.	.	.	.	.	.	4r	.	4r	.	8c#XL 8C#X\	.	.	.	.	.	.	.	.	.
.	.	.	.	.	.	.	.	.	.	.	.	8cnJ 8Cn\	.	.	.	.	.	.	.	.	.
.	.	.	.	.	.	.	.	2r	.	2r	.	8BnL 8BBn\	.	(8e-X/L	8e-\L	.	.	.	.	.	.
.	.	.	.	.	.	.	.	.	.	.	.	8B-X 8BB-X\	.	8d/	8d\	.	.	.	.	.	.
.	.	.	.	.	.	.	.	.	.	.	.	8A 8AA\	.	8c#X/	8c#\	.	.	.	.	.	.
.	.	.	.	.	.	.	.	.	.	.	.	8A-XJ 8AA-X\)	.	8cn/J)	8c\J	.	.	.	.	.	.
=31	=31	=31	=31	=31	=31	=31	=31	=31	=31	=31	=31	=31	=31	=31	=31	=31	=31	=31	=31	=31	=31
*	*	*	*	*	*	*	*	*	*	*	*	*	*	*	*	*	*^	*	*	*	*
!	!	!	!	!	!	!	!	!	!	!	!	!	!	!	!	!	!	!	!	!	!LO:TX:a:B:t=E	!
16GG/LL	p	1ryy	.	1ryy	.	1ryy	.	1r	.	1r	.	4G 4GG\	.	8B/	8B\	.	8g/	8g\	.	1ryy	1ryy	.
16GG/	.	.	.	.	.	.	.	.	.	.	.	.	.	.	.	.	.	.	.	.	.	.
16GG/	.	.	.	.	.	.	.	.	.	.	.	.	.	8r	8ryy	.	8r	8ryy	.	.	.	.
16GG/JJ	.	.	.	.	.	.	.	.	.	.	.	.	.	.	.	.	.	.	.	.	.	.
16GG/LL	.	.	.	.	.	.	.	.	.	.	.	8r	p	4r	4ryy	.	4r	4ryy	.	.	.	.
16GG/	.	.	.	.	.	.	.	.	.	.	.	.	.	.	.	.	.	.	.	.	.	.
16GG/	.	.	.	.	.	.	.	.	.	.	.	8c 8A\	.	.	.	.	.	.	.	.	.	.
16GG/JJ	.	.	.	.	.	.	.	.	.	.	.	.	.	.	.	.	.	.	.	.	.	.
16GG/LL	.	.	.	.	.	.	.	.	.	.	.	4.Bn 4.G^\	.	2r	2ryy	.	2r	2ryy	.	.	.	.
16GG/	.	.	.	.	.	.	.	.	.	.	.	.	.	.	.	.	.	.	.	.	.	.
16GG/	.	.	.	.	.	.	.	.	.	.	.	.	.	.	.	.	.	.	.	.	.	.
16GG/JJ	.	.	.	.	.	.	.	.	.	.	.	.	.	.	.	.	.	.	.	.	.	.
16GG/LL	.	.	.	.	.	.	.	.	.	.	.	.	.	.	.	.	.	.	.	.	.	.
16GG/	.	.	.	.	.	.	.	.	.	.	.	.	.	.	.	.	.	.	.	.	.	.
16GG/	.	.	.	.	.	.	.	.	.	.	.	8c 8A\	.	.	.	.	.	.	.	.	.	.
16GG/JJ	.	.	.	.	.	.	.	.	.	.	.	.	.	.	.	.	.	.	.	.	.	.
*	*	*	*	*	*	*	*	*	*	*	*	*	*	*v	*v	*	*	*	*	*	*	*
*	*	*	*	*	*	*	*	*	*	*	*	*	*	*	*	*v	*v	*	*	*	*
=32	=32	=32	=32	=32	=32	=32	=32	=32	=32	=32	=32	=32	=32	=32	=32	=32	=32	=32	=32	=32
16GG/LL	.	1ryy	.	1ryy	.	1ryy	.	1r	.	1r	.	8BL 8G'\	.	1r	.	1r	.	1ryy	1ryy	.
16GG/	.	.	.	.	.	.	.	.	.	.	.	.	.	.	.	.	.	.	.	.
16GG/	.	.	.	.	.	.	.	.	.	.	.	8cJ 8A'\	.	.	.	.	.	.	.	.
16GG/JJ	.	.	.	.	.	.	.	.	.	.	.	.	.	.	.	.	.	.	.	.
16GG/LL	.	.	.	.	.	.	.	.	.	.	.	8BL 8G'\	.	.	.	.	.	.	.	.
16GG/	.	.	.	.	.	.	.	.	.	.	.	.	.	.	.	.	.	.	.	.
16GG/	.	.	.	.	.	.	.	.	.	.	.	8cJ 8A'\	.	.	.	.	.	.	.	.
16GG/JJ	.	.	.	.	.	.	.	.	.	.	.	.	.	.	.	.	.	.	.	.
16GG/LL	.	.	.	.	.	.	.	.	.	.	.	8BL 8G'\	.	.	.	.	.	.	.	.
16GG/	.	.	.	.	.	.	.	.	.	.	.	.	.	.	.	.	.	.	.	.
16GG/	.	.	.	.	.	.	.	.	.	.	.	8cJ 8A'\	.	.	.	.	.	.	.	.
16GG/JJ	.	.	.	.	.	.	.	.	.	.	.	.	.	.	.	.	.	.	.	.
16GG/LL	.	.	.	.	.	.	.	.	.	.	.	8BL 8G'\	.	.	.	.	.	.	.	.
16GG/	.	.	.	.	.	.	.	.	.	.	.	.	.	.	.	.	.	.	.	.
16GG/	.	.	.	.	.	.	.	.	.	.	.	8cJ 8A'\	.	.	.	.	.	.	.	.
16GG/JJ	.	.	.	.	.	.	.	.	.	.	.	.	.	.	.	.	.	.	.	.
=33	=33	=33	=33	=33	=33	=33	=33	=33	=33	=33	=33	=33	=33	=33	=33	=33	=33	=33	=33	=33
16GG/LL	.	1ryy	.	1ryy	.	1ryy	.	[2d/	p	[2f/	p	8BL 8G'\	.	4.g 4.B/	p	1r	.	1ryy	1ryy	.
16GG/	.	.	.	.	.	.	.	.	.	.	.	.	.	.	.	.	.	.	.	.
16GG/	.	.	.	.	.	.	.	.	.	.	.	8cJ 8A'\	.	.	.	.	.	.	.	.
16GG/JJ	.	.	.	.	.	.	.	.	.	.	.	.	.	.	.	.	.	.	.	.
16GG/LL	.	.	.	.	.	.	.	.	.	.	.	8BL 8G'\	.	.	.	.	.	.	.	.
16GG/	.	.	.	.	.	.	.	.	.	.	.	.	.	.	.	.	.	.	.	.
16GG/	.	.	.	.	.	.	.	.	.	.	.	8cJ 8A'\	.	8a 8c/	.	.	.	.	.	.
16GG/JJ	.	.	.	.	.	.	.	.	.	.	.	.	.	.	.	.	.	.	.	.
16GG/LL	.	.	.	.	.	.	.	2d^/_	.	2f^/_	.	8BL 8G'\	.	4.g 4.B/	.	.	.	.	.	.
16GG/	.	.	.	.	.	.	.	.	.	.	.	.	.	.	.	.	.	.	.	.
16GG/	.	.	.	.	.	.	.	.	.	.	.	8cJ 8A'\	.	.	.	.	.	.	.	.
16GG/JJ	.	.	.	.	.	.	.	.	.	.	.	.	.	.	.	.	.	.	.	.
16GG/LL	.	.	.	.	.	.	.	.	.	.	.	8BL 8G'\	.	.	.	.	.	.	.	.
16GG/	.	.	.	.	.	.	.	.	.	.	.	.	.	.	.	.	.	.	.	.
16GG/	.	.	.	.	.	.	.	.	.	.	.	8cJ 8A'\	.	8a 8c/	.	.	.	.	.	.
16GG/JJ	.	.	.	.	.	.	.	.	.	.	.	.	.	.	.	.	.	.	.	.
=34	=34	=34	=34	=34	=34	=34	=34	=34	=34	=34	=34	=34	=34	=34	=34	=34	=34	=34	=34	=34
16GG/LL	.	1ryy	.	1ryy	.	1ryy	.	4d/_	.	4f^/_	.	8BL 8G'\	.	8gL 8B'/	.	1r	.	1ryy	1ryy	.
16GG/	.	.	.	.	.	.	.	.	.	.	.	.	.	.	.	.	.	.	.	.
16GG/	.	.	.	.	.	.	.	.	.	.	.	8cJ 8A'\	.	8aJ 8c'/	.	.	.	.	.	.
16GG/JJ	.	.	.	.	.	.	.	.	.	.	.	.	.	.	.	.	.	.	.	.
16GG/LL	.	.	.	.	.	.	.	4d/_	.	4f^/_	.	8BL 8G'\	.	8gL 8B'/	.	.	.	.	.	.
16GG/	.	.	.	.	.	.	.	.	.	.	.	.	.	.	.	.	.	.	.	.
16GG/	.	.	.	.	.	.	.	.	.	.	.	8cJ 8A'\	.	8aJ 8c'/	.	.	.	.	.	.
16GG/JJ	.	.	.	.	.	.	.	.	.	.	.	.	.	.	.	.	.	.	.	.
16GG/LL	.	.	.	.	.	.	.	4d/_	.	4f^/_	.	8BL 8G'\	.	8gL 8B'/	.	.	.	.	.	.
16GG/	.	.	.	.	.	.	.	.	.	.	.	.	.	.	.	.	.	.	.	.
16GG/	.	.	.	.	.	.	.	.	.	.	.	8cJ 8A'\	.	8aJ 8c'/	.	.	.	.	.	.
16GG/JJ	.	.	.	.	.	.	.	.	.	.	.	.	.	.	.	.	.	.	.	.
16GG/LL	.	.	.	.	.	.	.	4d/]	.	4f^/]	.	8BL 8G'\	.	8gL 8B'/	.	.	.	.	.	.
16GG/	.	.	.	.	.	.	.	.	.	.	.	.	.	.	.	.	.	.	.	.
16GG/	.	.	.	.	.	.	.	.	.	.	.	8cJ 8A'\	.	8aJ 8c'/	.	.	.	.	.	.
16GG/JJ	.	.	.	.	.	.	.	.	.	.	.	.	.	.	.	.	.	.	.	.
=35	=35	=35	=35	=35	=35	=35	=35	=35	=35	=35	=35	=35	=35	=35	=35	=35	=35	=35	=35	=35
*	*	*	*	*	*	*	*	*^	*	*	*	*	*	*	*	*	*	*	*	*
16GG/LL	.	1r	.	1r	.	1r	.	2d^/	2d\	.	[2f^/	.	4.d 4.B^\	.	4.b 4.d^/	.	4.b 4.g^/	.	1ryy	1r	.
16GG/	.	.	.	.	.	.	.	.	.	.	.	.	.	.	.	.	.	.	.	.	.
16GG/	.	.	.	.	.	.	.	.	.	.	.	.	.	.	.	.	.	.	.	.	.
16GG/JJ	.	.	.	.	.	.	.	.	.	.	.	.	.	.	.	.	.	.	.	.	.
16GG/LL	.	.	.	.	.	.	.	.	.	.	.	.	.	.	.	.	.	.	.	.	.
16GG/	.	.	.	.	.	.	.	.	.	.	.	.	.	.	.	.	.	.	.	.	.
16GG/	.	.	.	.	.	.	.	.	.	.	.	.	8c 8A\	.	8cc 8f/	.	8cc 8a/	.	.	.	.
16GG/JJ	.	.	.	.	.	.	.	.	.	.	.	.	.	.	.	.	.	.	.	.	.
16GG/LL	.	.	.	.	.	.	.	2d^/	2d\	.	2f^/_	.	4.d 4.B^\	.	4.b 4.d^/	.	4.b 4.g^/	.	.	.	.
16GG/	.	.	.	.	.	.	.	.	.	.	.	.	.	.	.	.	.	.	.	.	.
16GG/	.	.	.	.	.	.	.	.	.	.	.	.	.	.	.	.	.	.	.	.	.
16GG/JJ	.	.	.	.	.	.	.	.	.	.	.	.	.	.	.	.	.	.	.	.	.
16GG/LL	.	.	.	.	.	.	.	.	.	.	.	.	.	.	.	.	.	.	.	.	.
16GG/	.	.	.	.	.	.	.	.	.	.	.	.	.	.	.	.	.	.	.	.	.
16GG/	.	.	.	.	.	.	.	.	.	.	.	.	8c 8A\	.	8cc 8f/	.	8cc 8a/	.	.	.	.
16GG/JJ	.	.	.	.	.	.	.	.	.	.	.	.	.	.	.	.	.	.	.	.	.
=36	=36	=36	=36	=36	=36	=36	=36	=36	=36	=36	=36	=36	=36	=36	=36	=36	=36	=36	=36	=36	=36
*	*	*	*	*	*	*	*	*	*	*	*^	*	*^	*	*	*	*	*	*	*^	*
16GG/LL	<	1r	.	1r	.	1r	.	8d/	8d\	.	8f^/]	2ryy	.	8B/L	8G\L	.	(8bL 8g'/	.	(8bL 8g'\	<	1ryy	8gg'/L	8b\L	<
16GG/	.	.	.	.	.	.	.	.	.	.	.	.	.	.	.	.	.	.	.	.	.	.	.	.
!	!	!	!	!	!	!	!	!LO:TX:a:t=|:problem	!	!	!	!	!	!	!	!	!	!LO:DY:a	!	!	!	!	!	!
16GG/	.	.	.	.	.	.	.	8e/L	8cX\L	<	8r	.	.	8e/	8e\	.	8cc 8a'/	<	8cc 8a'\	.	.	8aa'/	8cc\	.
16GG/JJ	.	.	.	.	.	.	.	.	.	.	.	.	.	.	.	.	.	.	.	.	.	.	.	.
!	!	!	!	!	!	!	!	!LO:TX:a:t=|:problem	!	!	!	!	!	!	!	!	!	!	!	!	!	!	!	!
16GG/LL	.	.	.	.	.	.	.	8fX/	8d\	.	4r	.	.	8d/	8d\	.	8b 8g'/	.	8dd 8b'\	.	.	8bb'/	8dd\	.
16GG/	.	.	.	.	.	.	.	.	.	.	.	.	.	.	.	.	.	.	.	.	.	.	.	.
!	!	!	!	!	!	!	!	!LO:TX:a:t=|:problem	!	!	!	!	!	!	!	!	!	!	!	!	!	!	!	!
16GG/	.	.	.	.	.	.	.	8e/J	8c\J	.	.	.	.	8c/J	8c\J	.	8ccJ 8e'/	.	8eeJ 8cc'\	.	.	8ccc'/J	8ee\J	.
16GG/JJ	.	.	.	.	.	.	.	.	.	.	.	.	.	.	.	.	.	.	.	.	.	.	.	.
!	!	!	!	!	!	!	!	!LO:TX:a:t=|:problem	!	!	!	!	!	!	!	!	!	!	!	!	!	!	!	!
16GG/LL	.	.	.	.	.	.	.	8d/L	8d\L	.	4r	4ryy	.	8B/L	8B\L	.	8ddL 8f'/	.	8ffL 8dd'\	.	.	8ddd'/L	8ff\L	.
16GG/	.	.	.	.	.	.	.	.	.	.	.	.	.	.	.	.	.	.	.	.	.	.	.	.
!	!	!	!	!	!	!	!	!LO:TX:a:t=|:problem	!	!	!	!	!	!	!	!	!	!	!	!	!	!	!	!
16GG/	.	.	.	.	.	.	.	8e/	8c\	.	.	.	.	8A/	8A\	.	8ee 8g'/	.	8gg 8ee'\	.	.	8eee'/	8gg\	.
16GG/JJ	.	.	.	.	.	.	.	.	.	.	.	.	.	.	.	.	.	.	.	.	.	.	.	.
!	!	!	!	!	!	!	!	!LO:TX:a:t=|:problem	!	!	!	!	!	!	!	!	!	!	!	!	!	!	!	!
16GG/LL	.	.	.	.	.	.	.	8f/J	8c\J	.	8r	8ryy	.	8G/J	8G\J	.	8ff 8a'/)	[	8aa 8ff'\	[	.	8fff'/	8aa\	.
16GG/	.	.	.	.	.	.	.	.	.	.	.	.	.	.	.	.	.	.	.	.	.	.	.	.
16GG/	.	.	.	.	.	.	.	8d/	8d\	[	8g/	8f\	.	8r	8ryy	.	8ggJ 8b/	.	8bbJ 8dd\)	.	.	8ddd/J	8bb\J	.
16GG/JJ	[[	.	.	.	.	.	.	.	.	.	.	.	.	.	.	.	.	.	.	.	.	.	.	.
*	*	*	*	*	*	*	*	*	*	*	*	*	*	*v	*v	*	*	*	*	*	*	*	*	*
=37	=37	=37	=37	=37	=37	=37	=37	=37	=37	=37	=37	=37	=37	=37	=37	=37	=37	=37	=37	=37	=37	=37	=37
*	*	*	*	*	*	*^	*	*	*	*	*	*	*	*	*	*	*	*	*	*	*	*	*
!	!	!LO:TX:b:B:t=A=	!	!	!	!	!	!	!	!	!	!LO:TX:b:B:t=A=	!	!	!LO:TX:a:t=a due	!	!	!	!	!	!	!LO:TX:a:B:t=A=	!	!
4C/	.	4C^^/	ff	4e 4G^^\	ff	4ee^/	4cc\	ff	4e 4cX^\	2ryy	ff	4g 4c^/	2ryy	ff	4CC^^/	ff	4ee 4cc^^\	ff	4ccc 4ee^^\	ff	1ryy	4eee/	4ccc\	[ ff
4r	.	8F\L	.	8cL 8A\	.	8cc 8f/	4ryy	.	8fXL 8c\	.	.	8a 8c/	.	.	8FF/L	.	8eeL 8cc\	.	8aaL 8ff\	.	.	8ddd/L	8aa\L	.
.	.	16r	.	16r	.	16r	.	.	16r	.	.	16r	.	.	16r	.	16r	.	16r	.	.	16rff	16ryy	.
.	.	16G\Jk	.	16gJk 16B\	.	16gg 16dd\	.	.	16dJk 16G\	.	.	16g 16BX/	.	.	16GG/Jk	.	16ggJk 16b\	.	16ggJk 16b\	.	.	16ccc/Jk	16gg\Jk	.
!	!	!	!	!	!	!	!	!	!	!	!	!	!	!	!	!	!LO:TX:t=P:problem=frag. t.37-38 ukryty	!	!	!	!	!	!	!
2r	.	4G^^\	.	4g 4B^^\	.	4gg 4dd^^\	4ryy	.	4d 4G^\	4ryy	.	4g 4B^/	4ryy	.	4GG^^/	.	4gg 4b^^\	.	4gg 4b^^\	.	.	4bb^^/	4gg\	.
.	.	8c\	.	8e 8c\	.	8ee 8cc\	8ryy	.	8ryy	8eL 8cX\	.	8gL 8B/	8ryy	.	8C/L	.	8ee 8cc\	.	8ee 8cc\	.	.	8ccc/L	8ee\L	.
.	.	8r	.	16r	.	16r	16ryy	.	16r	16ryy	.	16r	16ryy	.	16r	.	16r	.	16r	.	.	16r	16ryy	.
.	.	.	.	16f 16A\	.	16dd/	16dd\	.	16d/	16d\Jk	.	16f/Jk	16f\	.	16D/Jk	.	16dd 16f/	.	16dd 16f/	.	.	16ff/Jk	16dd\Jk	.
=38	=38	=38	=38	=38	=38	=38	=38	=38	=38	=38	=38	=38	=38	=38	=38	=38	=38	=38	=38	=38	=38	=38	=38	=38
1r	.	4D^^\	.	(4f (4A^^\	.	4dd^^/	4dd\	.	4d/	4d\	.	4a 4f\	4ryy	.	4D^^\	.	4dd 4f^^/	.	4dd 4f^^/	.	1ryy	4ff^^/	4dd\	.
.	.	8G\L	.	8gL 8B\))	.	8b-X/L	8b-\L	.	8d/L	8d\L	.	8b-/L	8g\L	.	8F\L	.	8b-XL 8g/	.	8b-XL 8g/	.	.	8gg/L	8b-X\	.
.	.	16r	.	16r	.	16r	16ryy	.	16r	16ryy	.	16r	16ryy	.	16r	.	16r	.	16r	.	.	16r	8r	.
.	.	16A\Jk	.	16eJk 16c#X\	.	16a/Jk	16a\Jk	.	16e/Jk	16A\Jk	.	16a/Jk	16c#X\Jk	.	16A\Jk	.	16aJk 16c#X/	.	16aJk 16c#X/	.	.	16aa/Jk	.	.
.	.	8A^^\L	.	8eL 8c#^^\	.	8a^^/L	8a\L	.	8eL 8A^^\	2ryy	.	8aL 8c#^^/	2ryy	.	8A^^\L	.	8aL 8c#^^/	.	8aL 8c#^^/	.	.	8aa^^/L	2r	.
.	.	8d^^\J	.	8fJ 8d^^\	.	8f^^/J	8f\J	.	8fXJ 8d^^\	.	.	8fJ 8d^^/	.	.	8d^^\J	.	8fJ 8d^^/	.	8fJ 8d^^/	.	.	8gg^^/J	.	.
!	!	!LO:TX:b:B:t==B	!	!	!	!	!	!	!	!	!	!LO:TX:b:B:t==B	!	!	!	!	!	!	!	!	!	!LO:TX:a:B:t==B	!	!
.	.	4r	.	4r	.	4r	4ryy	.	4r	.	.	4r	.	.	4r	.	4r	.	4r	.	.	4r	.	.
*	*	*	*	*	*	*v	*v	*	*	*	*	*v	*v	*	*	*	*	*	*	*	*	*	*	*
=39	=39	=39	=39	=39	=39	=39	=39	=39	=39	=39	=39	=39	=39	=39	=39	=39	=39	=39	=39	=39	=39	=39
*	*	*	*	*	*	*	*	*	*	*	*	*	*^	*	*	*	*	*	*	*	*	*
1r	.	4D^^\	.	4f 4A^^\	ff	4ff 4a^^/	ff	4d 4A^^/	2ryy	ff	4a 4f^^\	ff	4DD^^/	4DD\	ff	4aa 4ff^^\	ff	(4aa 4ff^^\	ff	1ryy	4fff^^/	4ddd\	ff
.	.	8G\L	.	8dL 8B-X\	.	8ddL 8b-X/	.	8dL 8B/	.	.	8gL 8d/	.	8GG/L	8GG\L	.	8ggL 8dd\	.	8bb-XL 8dd\)	.	.	8ggg/L	8bb-X\L	.
.	.	16r	.	16re	.	16r	.	16r	.	.	16r	.	16r	16ryy	.	16r	.	16rff	.	.	16rff	16ryy	.
.	.	16A\Jk	.	16aJk 16c#X\	.	16cc#XJk 16a/	.	16eJk 16A/	.	.	16aJk 16c#X/	.	16AA/Jk	16AA\Jk	.	16eeJk 16cc#X\	.	16aaJk 16cc#X\	.	.	16ccc#X/Jk	16aa\Jk	.
.	.	4A^^\	.	4a 4c#^^\	.	4cc# 4a^^/	.	4e 4A^^/	4ryy	.	4a 4c#^^/	.	4AA^^/	4AA\	.	4ee 4cc#^^\	.	4aa 4cc#^^\	.	.	4ccc#^^/	4aa\	.
.	.	8d\	.	8a 8f\	.	8ddL 8f/	.	8d/L	8A\L	.	8aL 8d/	.	8D/L	8D\L	.	8ffL 8dd\	.	8aaL 8dd\	.	.	8ddd/L	8ff\L	.
.	.	8r	.	16r	.	16r	.	16r	16ryy	.	16r	.	16r	16ryy	.	16r	.	16rff	.	.	16rff	16ryy	.
.	.	.	.	16g#X 16G#X\	.	16bnJk 16g#X/	.	16e/Jk	16e\Jk	.	16g#XJk 16BX/	.	16E/Jk	16E\Jk	.	16eeJk 16g#X\	.	16gg#XJk 16b\	.	.	16ddd/Jk	16ff\Jk	.
*	*	*	*	*	*	*	*	*	*	*	*	*	*v	*v	*	*	*	*	*	*	*v	*v	*
=40	=40	=40	=40	=40	=40	=40	=40	=40	=40	=40	=40	=40	=40	=40	=40	=40	=40	=40	=40	=40	=40
*	*	*	*	*	*	*^	*	*	*	*	*^	*	*	*	*	*	*	*	*	*	*
!	!	!	!	!	!	!LO:SIC:v:s=g#	!	!	!	!	!	!	!	!	!LO:TX:a:t=a due	!	!	!	!	!	!	!	!
1r	.	4E^^\	.	4g#X 4B^^\	.	4b 4g/	4ryy	.	4e/	4e\	.	4g#X 4BX^^/	2ryy	.	4E^^\	.	4ee 4g#X^^\	.	4gg#X 4b^^\	.	1ryy	4ee^^\	.
.	.	8A\L	.	8aL 8c\	.	8ccL 8a/	8ryy	.	8e/L	8A\L	.	8aL 8c/	.	.	8A\L	.	8eeL 8a\	.	8aaL 8cc\	.	.	8cc\L	.
.	.	16r	.	16re	.	16r	16ryy	.	16r	16ryy	.	16r	.	.	16rF	.	16r	.	16r	.	.	16r	.
.	.	16B\Jk	.	16f#XJk 16d#X\	.	16b/Jk	16b\	.	16d#X/Jk	16B\Jk	.	16f#XJk 16BX/	.	.	16Bn\Jk	.	16cc#XJk 16f#X\	.	16ff#XJk 16b\	.	.	16bn\Jk	.
.	.	8B^^\L	.	8f#L 8d#^^\	.	8b^^/L	8b\L	.	8d#^^/L	8B\L	.	8f#^^/L	8B\L	.	8B^^\L	.	8ddL 8f#^^/	.	8ff#L 8b^^\	.	.	8b^^\L	.
!	!	!	!	!	!	!LO:SIC:v:s=g#	!	!	!	!	!	!	!	!	!	!	!	!	!	!	!	!	!
!	!	!	!	!	!	!LO:SIC:v:s=g#	!	!	!	!	!	!	!	!	!	!	!	!	!	!	!	!LO:SIC:v:s=g#	!
.	.	8e^^\J	.	8g#J 8e^^\	.	8g^^/J	8g\J	.	8e^^/J	8e\J	.	8g#^^/J	8e\J	.	8e^^\J	.	8eeJ 8g#^^/	.	8gg#J 8b^^\	.	.	8g^^\J	.
.	.	4r	.	4r	.	4r	4ryy	.	4r	4ryy	.	4r	4ryy	.	4r	.	4r	.	4r	.	.	4r	.
*	*	*	*	*	*	*v	*v	*	*	*	*	*v	*v	*	*	*	*	*	*	*	*	*	*
*	*	*	*	*	*	*	*	*v	*v	*	*	*	*	*	*	*	*	*	*	*	*
=41	=41	=41	=41	=41	=41	=41	=41	=41	=41	=41	=41	=41	=41	=41	=41	=41	=41	=41	=41	=41
*	*	*	*	*	*	*	*	*	*	*	*	*^	*	*	*	*	*	*	*	*
!	!	!	!	!	!	!	!	!	!	!	!	!	!	!	!	!	!LO:TX:a:t=Soli.	!	!	!LO:TX:a:B:t=J	!
16C/LL	p	1ryy	.	1ryy	.	1ryy	.	1r	.	8.gL 8.G/	p	(4C/	4C\	p	1r	.	(4..g (4..e/	mf <	1ryy	1ryy	.
16C/	.	.	.	.	.	.	.	.	.	.	.	.	.	.	.	.	.	.	.	.	.
16C/	.	.	.	.	.	.	.	.	.	.	.	.	.	.	.	.	.	.	.	.	.
16C/JJ	.	.	.	.	.	.	.	.	.	16gJk 16G/	.	.	.	.	.	.	.	.	.	.	.
16C/LL	.	.	.	.	.	.	.	.	.	8.gL 8.G/	.	4GG#X^/	4GG#\	.	.	.	.	.	.	.	.
16C/	.	.	.	.	.	.	.	.	.	.	.	.	.	.	.	.	.	.	.	.	.
16C/	.	.	.	.	.	.	.	.	.	.	.	.	.	.	.	.	.	.	.	.	.
16C/JJ	.	.	.	.	.	.	.	.	.	16gJk 16G/	.	.	.	.	.	.	16ee 16g/))	.	.	.	.
16C/LL	.	.	.	.	.	.	.	.	.	8.gL 8.G/	.	4AA/	4AA\	.	.	.	(4..ee (4..g/	[ >	.	.	.
16C/	.	.	.	.	.	.	.	.	.	.	.	.	.	.	.	.	.	.	.	.	.
16C/	.	.	.	.	.	.	.	.	.	.	.	.	.	.	.	.	.	.	.	.	.
16C/JJ	.	.	.	.	.	.	.	.	.	16gJk 16G/	.	.	.	.	.	.	.	.	.	.	.
16C/LL	.	.	.	.	.	.	.	.	.	8.gL 8.G/	.	4BB/	4BB\	.	.	.	.	.	.	.	.
16C/	.	.	.	.	.	.	.	.	.	.	.	.	.	.	.	.	.	.	.	.	.
16C/	.	.	.	.	.	.	.	.	.	.	.	.	.	.	.	.	.	.	.	.	.
16C/JJ	.	.	.	.	.	.	.	.	.	16gJk 16G/	.	.	.	.	.	.	16dd 16f/))	]]	.	.	.
=42	=42	=42	=42	=42	=42	=42	=42	=42	=42	=42	=42	=42	=42	=42	=42	=42	=42	=42	=42	=42	=42
.	.	.	.	.	.	.	.	.	.	.	.	.	.	.	.	.	8qdd 8qf/	.	.	.	.
*	*	*	*	*	*	*	*	*	*	*	*	*	*	*	*	*	*^	*	*	*	*
16C/LL	.	1ryy	.	1ryy	.	1ryy	.	8.gL 8.G/	p	8g 8G/	.	4C/	4C\	.	1r	.	8.ccL 8.e/	2ryy	.	1ryy	1ryy	.
16C/	.	.	.	.	.	.	.	.	.	.	.	.	.	.	.	.	.	.	.	.	.	.
16C/	.	.	.	.	.	.	.	.	.	8r	.	.	.	.	.	.	.	.	.	.	.	.
16C/JJ	.	.	.	.	.	.	.	16gJk 16G/	.	.	.	.	.	.	.	.	16bK 16d/	.	.	.	.	.
16C/LL	.	.	.	.	.	.	.	8.gL 8.G/	.	4r	.	4GG#X^/	4GG#\	.	.	.	8.cc 8.e/	.	.	.	.	.
16C/	.	.	.	.	.	.	.	.	.	.	.	.	.	.	.	.	.	.	.	.	.	.
16C/	.	.	.	.	.	.	.	.	.	.	.	.	.	.	.	.	.	.	.	.	.	.
16C/JJ	.	.	.	.	.	.	.	16gJk 16G/	.	.	.	.	.	.	.	.	16cc#XJk 16e/	.	.	.	.	.
16C/LL	.	.	.	.	.	.	.	8.gL 8.G/	.	2r	.	4AA/	4AA\	.	.	.	(4dd (4f^/	4ryy	.	.	.	.
16C/	.	.	.	.	.	.	.	.	.	.	.	.	.	.	.	.	.	.	.	.	.	.
16C/	.	.	.	.	.	.	.	.	.	.	.	.	.	.	.	.	.	.	.	.	.	.
16C/JJ	.	.	.	.	.	.	.	16gJk 16G/	.	.	.	.	.	.	.	.	.	.	.	.	.	.
16C/LL	.	.	.	.	.	.	.	8.gL 8.G/	.	.	.	4BB/	4BB\	.	.	.	8g/L))	8g\L	.	.	.	.
16C/	.	.	.	.	.	.	.	.	.	.	.	.	.	.	.	.	.	.	.	.	.	.
16C/	.	.	.	.	.	.	.	.	.	.	.	.	.	.	.	.	16r	16ryy	.	.	.	.
16C/JJ	.	.	.	.	.	.	.	16gJk 16G/	.	.	.	.	.	.	.	.	16g/Jk	16g\Jk	.	.	.	.
=43	=43	=43	=43	=43	=43	=43	=43	=43	=43	=43	=43	=43	=43	=43	=43	=43	=43	=43	=43	=43	=43	=43
16C/LL	.	1r	.	1r	.	1r	.	8g 8G/	.	8.gL 8.G/	.	4C/)	4C\	.	1r	.	(4..g/	(4..e\	<	1ryy	1r	.
16C/	.	.	.	.	.	.	.	.	.	.	.	.	.	.	.	.	.	.	.	.	.	.
16C/	.	.	.	.	.	.	.	8r	.	.	.	.	.	.	.	.	.	.	.	.	.	.
16C/JJ	.	.	.	.	.	.	.	.	.	16gJk 16G/	.	.	.	.	.	.	.	.	.	.	.	.
16C/LL	.	.	.	.	.	.	.	4r	.	8.gL 8.G/	.	(4GG#X^/	4GG#\	.	.	.	.	.	.	.	.	.
16C/	.	.	.	.	.	.	.	.	.	.	.	.	.	.	.	.	.	.	.	.	.	.
16C/	.	.	.	.	.	.	.	.	.	.	.	.	.	.	.	.	.	.	.	.	.	.
16C/JJ	.	.	.	.	.	.	.	.	.	16gJk 16G/	.	.	.	.	.	.	16gg 16ee\))	16ryy	.	.	.	.
16C/LL	.	.	.	.	.	.	.	2r	.	8.gL 8.G/	.	4AA/	4AA\	.	.	.	(4..gg (4..ee\	2ryy	[ >	.	.	.
16C/	.	.	.	.	.	.	.	.	.	.	.	.	.	.	.	.	.	.	.	.	.	.
16C/	.	.	.	.	.	.	.	.	.	.	.	.	.	.	.	.	.	.	.	.	.	.
16C/JJ	.	.	.	.	.	.	.	.	.	16gJk 16G/	.	.	.	.	.	.	.	.	.	.	.	.
16C/LL	.	.	.	.	.	.	.	.	.	8.gL 8.G/	.	4BB/	4BB\	.	.	.	.	.	.	.	.	.
16C/	.	.	.	.	.	.	.	.	.	.	.	.	.	.	.	.	.	.	.	.	.	.
16C/	.	.	.	.	.	.	.	.	.	.	.	.	.	.	.	.	.	.	.	.	.	.
16C/JJ	.	.	.	.	.	.	.	.	.	16gJk 16G/	.	.	.	.	.	.	16ff 16dd\))	.	.	.	.	.
=44	=44	=44	=44	=44	=44	=44	=44	=44	=44	=44	=44	=44	=44	=44	=44	=44	=44	=44	=44	=44	=44	=44
.	.	.	.	.	.	.	.	.	.	.	.	.	.	.	.	.	8qff 8qdd/	.	]	.	.	.
16C/LL	.	1r	.	1r	.	1r	.	8.gL 8.G/	.	8g 8G/	.	4C/	4C\	.	1r	.	8.eeL 8.cc\	2ryy	.	1ryy	1r	.
16C/	.	.	.	.	.	.	.	.	.	.	.	.	.	.	.	.	.	.	.	.	.	.
16C/	.	.	.	.	.	.	.	.	.	8r	.	.	.	.	.	.	.	.	.	.	.	.
16C/JJ	.	.	.	.	.	.	.	16gJk 16G/	.	.	.	.	.	.	.	.	16ddK 16b\	.	.	.	.	.
16C/LL	.	.	.	.	.	.	.	8.gL 8.G/	.	4r	.	4GG#X^/	4GG#\	.	.	.	8.ee 8.cc\	.	.	.	.	.
16C/	.	.	.	.	.	.	.	.	.	.	.	.	.	.	.	.	.	.	.	.	.	.
16C/	.	.	.	.	.	.	.	.	.	.	.	.	.	.	.	.	.	.	.	.	.	.
16C/JJ	.	.	.	.	.	.	.	16gJk 16G/	.	.	.	.	.	.	.	.	16ffJk 16dd\	.	.	.	.	.
16C/LL	.	.	.	.	.	.	.	8.gL 8.G/	.	2r	.	4AA/	4AA\	.	.	.	4ff 4dd^\	4ryy	.	.	.	.
16C/	.	.	.	.	.	.	.	.	.	.	.	.	.	.	.	.	.	.	.	.	.	.
16C/	.	.	.	.	.	.	.	.	.	.	.	.	.	.	.	.	.	.	.	.	.	.
16C/JJ	.	.	.	.	.	.	.	16gJk 16G/	.	.	.	.	.	.	.	.	.	.	.	.	.	.
16C/LL	.	.	.	.	.	.	.	8.gL 8.G/	.	.	.	4BB/	4BB\	.	.	.	8g/	8g\	.	.	.	.
16C/	.	.	.	.	.	.	.	.	.	.	.	.	.	.	.	.	.	.	.	.	.	.
16C/	.	.	.	.	.	.	.	.	.	.	.	.	.	.	.	.	8ryy	8ryy	.	.	.	.
16C/JJ	.	.	.	.	.	.	.	16gJk 16G/	.	.	.	.	.	.	.	.	.	.	.	.	.	.
*	*	*	*	*	*	*	*	*	*	*	*	*	*	*	*	*	*v	*v	*	*	*	*
=45	=45	=45	=45	=45	=45	=45	=45	=45	=45	=45	=45	=45	=45	=45	=45	=45	=45	=45	=45	=45	=45
*	*	*	*	*	*	*	*	*	*	*	*	*	*	*	*	*	*	*	*	*^	*
16C/LL	.	1r	.	1r	.	1r	.	8g 8G/	.	8.gL 8.G/	.	8C/)	8C\	.	(4..g (4..e/	<	1r	.	1ryy	4..gg/	(4..g\	p <
16C/	.	.	.	.	.	.	.	.	.	.	.	.	.	.	.	.	.	.	.	.	.	.
16C/	.	.	.	.	.	.	.	8ryy	.	.	.	(8GG#X^/L	8GG#\L	.	.	.	.	.	.	.	.	.
16C/JJ	.	.	.	.	.	.	.	.	.	16gJk 16G/	.	.	.	.	.	.	.	.	.	.	.	.
16C/LL	.	.	.	.	.	.	.	4ryy	.	8.gL 8.G/	.	8AA/	8AA\	.	.	.	.	.	.	.	.	.
16C/	.	.	.	.	.	.	.	.	.	.	.	.	.	.	.	.	.	.	.	.	.	.
16C/	.	.	.	.	.	.	.	.	.	.	.	8AA#X/J	8AA#\J	.	.	.	.	.	.	.	.	.
16C/JJ	.	.	.	.	.	.	.	.	.	16gJk 16G/	.	.	.	.	16ee 16g/))	.	.	.	.	16gg/	16ee\)	[
16C/LL	.	.	.	.	.	.	.	2ryy	.	8.gL 8.G/	.	8BB/L	8BB\L	.	(4..ee (4..g/	[ >	.	.	.	(4..gg/	4..ee\	>
16C/	.	.	.	.	.	.	.	.	.	.	.	.	.	.	.	.	.	.	.	.	.	.
16C/	.	.	.	.	.	.	.	.	.	.	.	8GGn/	8GG\	.	.	.	.	.	.	.	.	.
16C/JJ	.	.	.	.	.	.	.	.	.	16gJk 16G/	.	.	.	.	.	.	.	.	.	.	.	.
16C/LL	.	.	.	.	.	.	.	.	.	8.gL 8.G/	.	8AAn/	8AA\	.	.	.	.	.	.	.	.	.
16C/	.	.	.	.	.	.	.	.	.	.	.	.	.	.	.	.	.	.	.	.	.	.
16C/	.	.	.	.	.	.	.	.	.	.	.	8BB/J	8BB\J	.	.	.	.	.	.	.	.	.
16C/JJ	.	.	.	.	.	.	.	.	.	16gJk 16G/	.	.	.	.	16dd 16f/))	]]	.	.	.	16ff/)	16dd\	]
=46	=46	=46	=46	=46	=46	=46	=46	=46	=46	=46	=46	=46	=46	=46	=46	=46	=46	=46	=46	=46	=46	=46
.	.	.	.	.	.	.	.	.	.	.	.	.	.	.	8qdd 8qf/	.	.	.	.	8qff 8qdd/	.	.
*	*	*	*	*	*	*	*	*	*	*	*	*	*	*	*^	*	*	*	*	*	*	*
16C/LL	.	1r	.	1r	.	1r	.	8.gL 8.G/	.	8g 8G/	.	8C/L	8C\L	.	8.ccL 8.e/	2ryy	.	1r	.	1ryy	8.ee/L	8.cc\L	.
16C/	.	.	.	.	.	.	.	.	.	.	.	.	.	.	.	.	.	.	.	.	.	.	.
16C/	.	.	.	.	.	.	.	.	.	8r	.	8GG#X^/	8GG#\	.	.	.	.	.	.	.	.	.	.
16C/JJ	.	.	.	.	.	.	.	16gJk 16G/	.	.	.	.	.	.	16bK 16d/	.	.	.	.	.	16dd/K	16b\K	.
16C/LL	.	.	.	.	.	.	.	8.gL 8.G/	.	4r	.	8AA/	8AA\	.	8.cc 8.e/	.	.	.	.	.	8.ee/	8.cc\	.
16C/	.	.	.	.	.	.	.	.	.	.	.	.	.	.	.	.	.	.	.	.	.	.	.
16C/	.	.	.	.	.	.	.	.	.	.	.	8AA#X/J	8AA#\J	.	.	.	.	.	.	.	.	.	.
16C/JJ	.	.	.	.	.	.	.	16gJk 16G/	.	.	.	.	.	.	16cc#XJk 16e/	.	.	.	.	.	16ee/Jk	16cc#X\Jk	.
16C/LL	.	.	.	.	.	.	.	8.gL 8.G/	.	2r	.	8BB/L	8BB\L	.	(4dd (4f^/	4ryy	.	.	.	.	(4ff^/	(4dd\	.
16C/	.	.	.	.	.	.	.	.	.	.	.	.	.	.	.	.	.	.	.	.	.	.	.
16C/	.	.	.	.	.	.	.	.	.	.	.	8GGn/	8GG\	.	.	.	.	.	.	.	.	.	.
16C/JJ	.	.	.	.	.	.	.	16gJk 16G/	.	.	.	.	.	.	.	.	.	.	.	.	.	.	.
16C/LL	.	.	.	.	.	.	.	8.gL 8.G/	.	.	.	8AAn/	8AA\	.	8g/))	8g\	.	.	.	.	8g/)	8g\)	.
16C/	.	.	.	.	.	.	.	.	.	.	.	.	.	.	.	.	.	.	.	.	.	.	.
16C/	.	.	.	.	.	.	.	.	.	.	.	8BB/J	8BB\J	.	8r	8ryy	.	.	.	.	8r	8ryy	.
16C/JJ	.	.	.	.	.	.	.	16gJk 16G/	.	.	.	.	.	.	.	.	.	.	.	.	.	.	.
*	*	*	*	*	*	*	*	*	*	*	*	*	*	*	*v	*v	*	*	*	*	*	*	*
=47	=47	=47	=47	=47	=47	=47	=47	=47	=47	=47	=47	=47	=47	=47	=47	=47	=47	=47	=47	=47	=47	=47
16C/LL	.	1ryy	.	1ryy	.	1ryy	.	1ryy	.	8.gL 8.G/	.	8C/L)	8C\L	.	(4..g (4..e/	<	1ryy	.	1ryy	(4..gg/	(4..g\	<
16C/	.	.	.	.	.	.	.	.	.	.	.	.	.	.	.	.	.	.	.	.	.	.
16C/	.	.	.	.	.	.	.	.	.	.	.	(8GG#X/	8GG#\	.	.	.	.	.	.	.	.	.
16C/JJ	.	.	.	.	.	.	.	.	.	16gJk 16G/	.	.	.	.	.	.	.	.	.	.	.	.
16C/LL	.	.	.	.	.	.	.	.	.	8.gL 8.G/	.	8AA/	8AA\	.	.	.	.	.	.	.	.	.
16C/	.	.	.	.	.	.	.	.	.	.	.	.	.	.	.	.	.	.	.	.	.	.
16C/	.	.	.	.	.	.	.	.	.	.	.	8AA#X/J	8AA#\J	.	.	.	.	.	.	.	.	.
16C/JJ	.	.	.	.	.	.	.	.	.	16gJk 16G/	.	.	.	.	16gg 16ee\))	.	.	.	.	16ggg/)	16gg\)	[
16C/LL	.	.	.	.	.	.	.	.	.	8.gL 8.G/	.	8BB/L	8BB\L	.	(4..gg (4..ee^\	[ >	.	.	.	(4..eee/	(4..gg\	>
16C/	.	.	.	.	.	.	.	.	.	.	.	.	.	.	.	.	.	.	.	.	.	.
16C/	.	.	.	.	.	.	.	.	.	.	.	8GGn/	8GG\	.	.	.	.	.	.	.	.	.
16C/JJ	.	.	.	.	.	.	.	.	.	16gJk 16G/	.	.	.	.	.	.	.	.	.	.	.	.
16C/LL	.	.	.	.	.	.	.	.	.	8.gL 8.G/	.	8AAn/	8AA\	.	.	.	.	.	.	.	.	.
16C/	.	.	.	.	.	.	.	.	.	.	.	.	.	.	.	.	.	.	.	.	.	.
16C/	.	.	.	.	.	.	.	.	.	.	.	8BB/J	8BB\J	.	.	.	.	.	.	.	.	.
16C/JJ	.	.	.	.	.	.	.	.	.	16gJk 16G/	.	.	.	.	16ff 16dd\))	]	.	.	.	16ddd/)	16ff\)	]
=48	=48	=48	=48	=48	=48	=48	=48	=48	=48	=48	=48	=48	=48	=48	=48	=48	=48	=48	=48	=48	=48	=48
.	.	.	.	.	.	.	.	.	.	.	.	.	.	.	8qff 8qdd/	.	.	.	.	8qddd/	8qff/	.
*	*	*	*	*	*	*	*	*	*	*	*	*	*	*	*^	*	*	*	*	*	*	*
16C/LL	.	1r	.	1r	.	1r	.	8.gL 8.G/	.	8g 8G/	.	8C/L	8C\L	.	8.eeL 8.cc\	2ryy	.	1r	.	1ryy	8.ccc/L	8.ee\L	.
16C/	.	.	.	.	.	.	.	.	.	.	.	.	.	.	.	.	.	.	.	.	.	.	.
16C/	.	.	.	.	.	.	.	.	.	8r	.	8GG#X/	8GG#\	.	.	.	.	.	.	.	.	.	.
16C/JJ	.	.	.	.	.	.	.	16gJk 16G/	.	.	.	.	.	.	16ddK 16b\	.	.	.	.	.	16bb/K	16dd\K	.
16C/LL	.	.	.	.	.	.	.	8.gL 8.G/	.	4r	.	8AA/	8AA\	.	8.ee 8.cc\	.	.	.	.	.	8.ccc/	8.ee\	.
16C/	.	.	.	.	.	.	.	.	.	.	.	.	.	.	.	.	.	.	.	.	.	.	.
16C/	.	.	.	.	.	.	.	.	.	.	.	8AA#X/J	8AA#\J	.	.	.	.	.	.	.	.	.	.
16C/JJ	.	.	.	.	.	.	.	16gJk 16G/	.	.	.	.	.	.	16ffJk 16dd\	.	.	.	.	.	16ddd/Jk	16ff\Jk	.
16C/LL	.	.	.	.	.	.	.	8.gL 8.G/	.	2r	.	8BB/L	8BB\L	.	(4ff (4dd^\	4ryy	.	.	.	.	(4ddd/	(4ff^\	.
16C/	.	.	.	.	.	.	.	.	.	.	.	.	.	.	.	.	.	.	.	.	.	.	.
16C/	.	.	.	.	.	.	.	.	.	.	.	8GGn/	8GG\	.	.	.	.	.	.	.	.	.	.
16C/JJ	.	.	.	.	.	.	.	16gJk 16G/	.	.	.	.	.	.	.	.	.	.	.	.	.	.	.
16C/LL	.	.	.	.	.	.	.	8.gL 8.G/	.	.	.	8AAn/	8AA\	.	8g/))	8g\	.	.	.	.	8gg/)	8g\)	.
16C/	.	.	.	.	.	.	.	.	.	.	.	.	.	.	.	.	.	.	.	.	.	.	.
16C/	.	.	.	.	.	.	.	.	.	.	.	8BB/J	8BB\J	.	8r	8ryy	.	.	.	.	8r	8ryy	.
16C/JJ	.	.	.	.	.	.	.	16gJk 16G/	.	.	.	.	.	.	.	.	.	.	.	.	.	.	.
*	*	*	*	*	*	*	*	*	*	*	*	*	*	*	*v	*v	*	*	*	*	*v	*v	*
=49	=49	=49	=49	=49	=49	=49	=49	=49	=49	=49	=49	=49	=49	=49	=49	=49	=49	=49	=49	=49	=49
!	!	!	!	!	!	!	!	!LO:TX:a:t=Corni	!	!	!	!	!	!	!	!	!	!	!	!LO:TX:a:B:t=O	!
8C/	.	8C/	pp	8e 8G\	pp	1r	.	8eL 8cX/	.	1g	p	4C/)	4C\	.	1r	.	8eeL 8cc\	p	1ryy	1r	.
8r	.	8r	.	8r	.	.	.	16r	.	.	.	.	.	.	.	.	16r	.	.	.	.
.	.	.	.	.	.	.	.	16eJk 16c/	.	.	.	.	.	.	.	.	16eeJk 16cc\	.	.	.	.
4r	.	8C/	.	8e 8G\	.	.	.	8eL 8cX/	.	.	.	4r	4ryy	.	.	.	8eeL 8cc\	.	.	.	.
.	.	8r	.	8r	.	.	.	16r	.	.	.	.	.	.	.	.	16r	.	.	.	.
.	.	.	.	.	.	.	.	16eJk 16c/	.	.	.	.	.	.	.	.	16eeJk 16cc\	.	.	.	.
2r	.	8C/	.	8e 8G\	.	.	.	8eL 8cX/	.	.	.	2r	2ryy	.	.	.	8eeL 8cc\	.	.	.	.
.	.	8r	.	8r	.	.	.	16r	.	.	.	.	.	.	.	.	16r	.	.	.	.
.	.	.	.	.	.	.	.	16eJk 16c/	.	.	.	.	.	.	.	.	16eeJk 16cc\	.	.	.	.
.	.	8C/	.	8e 8G\	.	.	.	8eL 8cX/	.	.	.	.	.	.	.	.	8eeL 8cc\	.	.	.	.
.	.	8r	.	8r	.	.	.	16r	.	.	.	.	.	.	.	.	16r	.	.	.	.
.	.	.	.	.	.	.	.	16eJk 16c/	.	.	.	.	.	.	.	.	16eeJk 16cc\	.	.	.	.
*	*	*	*	*	*	*	*	*	*	*	*	*v	*v	*	*	*	*	*	*	*	*
=50	=50	=50	=50	=50	=50	=50	=50	=50	=50	=50	=50	=50	=50	=50	=50	=50	=50	=50	=50	=50
!	!	!	!	!	!	!	!	!	!	!	!	!	!	!LO:TX:a:t=a due	!	!	!	!	!LO:TX:b:t=col Flauto.	!
1r	.	8BB-X/	.	8e 8G\	.	1r	.	8eL 8c#\	.	1g 1G	<[	1E 1C#X	<[	(16e/LL	p	8ee 8cc#X\	.	1ryy	(16ee/LL	p
.	.	.	.	.	.	.	.	.	.	.	.	.	.	16f/	.	.	.	.	16ff/	.
.	.	8r	.	8r	.	.	.	16r	.	.	.	.	.	16f#X/	.	8r	.	.	16ff#X/	.
.	.	.	.	.	.	.	.	16eJk 16c#\	<	.	.	.	.	16g/JJ	.	.	.	.	16gg/JJ	.
.	.	4r	.	4r	.	.	.	8eL 8c#\	.	.	.	.	.	16g#X/LL	<	4r	.	.	16gg#X/LL	.
.	.	.	.	.	.	.	.	.	.	.	.	.	.	16a/	.	.	.	.	16aa/	.
.	.	.	.	.	.	.	.	16r	.	.	.	.	.	16a#X/	.	.	.	.	16aa#X/	.
.	.	.	.	.	.	.	.	16eJk 16c#\	.	.	.	.	.	16b/JJ	.	.	.	.	16bb/JJ	.
.	.	2r	.	2r	.	.	.	8eL 8c#\	.	.	.	.	.	16cc/LL	.	2r	.	.	16ccc/LL	.
.	.	.	.	.	.	.	.	.	.	.	.	.	.	16cc#X/	.	.	.	.	16ccc#X/	.
.	.	.	.	.	.	.	.	16r	.	.	.	.	.	16dd/	.	.	.	.	16ddd/	.
.	.	.	.	.	.	.	.	16eJk 16c#\	.	.	.	.	.	16dd#X/JJ	.	.	.	.	16ddd#X/JJ	.
.	.	.	.	.	.	.	.	8eL 8c#\	.	.	.	.	.	16ee/LL	.	.	.	.	16eee/LL	.
.	.	.	.	.	.	.	.	.	.	.	.	.	.	16ff/	.	.	.	.	16fff/	.
.	.	.	.	.	.	.	.	16r	.	.	.	.	.	16ff#X/	.	.	.	.	16fff#X/	.
.	.	.	.	.	.	.	.	16eJk 16c#\	[[	.	.	.	.	16gg/JJ)	[[	.	.	.	16ggg/JJ)	.
=51	=51	=51	=51	=51	=51	=51	=51	=51	=51	=51	=51	=51	=51	=51	=51	=51	=51	=51	=51	=51
*	*	*	*	*	*	*	*	*	*	*	*	*	*	*^	*	*	*	*	*	*
1r	.	8D-X\	.	8f 8A-X\	.	1r	.	8e#XL 8c#\	fp	[1a-X [1A-X	fp	4F 4D-X\	sf	8aa-X/	8aa-\	sf	8ffL 8dd-X\	p	1ryy	8aaa-X\	sf
.	.	8r	.	8r	.	.	.	16r	.	.	.	.	.	8r	8ryy	.	16r	.	.	8r	.
.	.	.	.	.	.	.	.	16e#Jk 16c#\	.	.	.	.	.	.	.	.	16ffJk 16dd-\	.	.	.	.
.	.	8D-\	.	8f 8A-\	.	.	.	8e#L 8c#\	.	.	.	4r	.	4r	4ryy	.	8ffL 8dd-\	.	.	4r	.
.	.	8r	.	8r	.	.	.	16r	.	.	.	.	.	.	.	.	16r	.	.	.	.
.	.	.	.	.	.	.	.	16e#Jk 16c#\	.	.	.	.	.	.	.	.	16ffJk 16dd-\	.	.	.	.
.	.	8D-\	.	8f 8A-\	.	.	.	8e#L 8c#\	.	.	.	2r	.	2r	2ryy	.	8ffL 8dd-\	.	.	2r	.
.	.	8r	.	8r	.	.	.	16r	.	.	.	.	.	.	.	.	16r	.	.	.	.
.	.	.	.	.	.	.	.	16e#Jk 16c#\	.	.	.	.	.	.	.	.	16ffJk 16dd-\	.	.	.	.
.	.	8D-\	.	8f 8A-\	.	.	.	8e#L 8c#\	.	.	.	.	.	.	.	.	8ffL 8dd-\	.	.	.	.
.	.	8r	.	8r	.	.	.	16r	.	.	.	.	.	.	.	.	16r	.	.	.	.
.	.	.	.	.	.	.	.	16e#Jk 16c#\	.	.	.	.	.	.	.	.	16ffJk 16dd-\	.	.	.	.
=52	=52	=52	=52	=52	=52	=52	=52	=52	=52	=52	=52	=52	=52	=52	=52	=52	=52	=52	=52	=52	=52
*	*	*	*	*	*	*	*	*	*	*	*	*	*	*	*	*	*	*	*	*^	*
!	!	!	!	!	!	!	!	!	!	!	!	!	!	!	!	!	!	!	!	!LO:TX:a:t=col Clar&colon; al 8mo	!	!
!	!	!	!	!	!	!	!	!	!	!	!	!	!	!	!	!	!	!	!	!LO:TX:t=P:problem=t.52-53 ukryte	!	!
1r	.	8C-X\	.	8f 8A-X\	.	1r	.	8e#XL 8d\	.	(1a-] (1A-]	<[	(1F (1Dn	p < [[	(16f/LL	16f\LL	.	8ff 8ddn\	.	1ryy	(16ff/LL	16ff\LL	p
.	.	.	.	.	.	.	.	.	.	.	.	.	.	16g-X/	16g-\	.	.	.	.	16gg-X/	16gg-\	.
.	.	8r	.	8r	.	.	.	16r	.	.	.	.	.	16gn/	16g\	.	8r	.	.	16ggn/	16gg\	.
.	.	.	.	.	.	.	.	16e#Jk 16d\	<	.	.	.	.	16a-X/JJ	16a-\JJ	<	.	.	.	16aa-X/JJ	16aa-\JJ	<
.	.	4r	.	4r	.	.	.	8e#L 8d\	.	.	.	.	.	16an/LL	16a\LL	.	4r	.	.	16aan/LL	16aa\LL	.
.	.	.	.	.	.	.	.	.	.	.	.	.	.	16b-X/	16b-\	.	.	.	.	16bb-X/	16bb-\	.
.	.	.	.	.	.	.	.	16r	.	.	.	.	.	16bn/	16b\	.	.	.	.	16bbn/	16bb\	.
.	.	.	.	.	.	.	.	16e#Jk 16d\	.	.	.	.	.	16cc/JJ	16cc\JJ	.	.	.	.	16ccc/JJ	16ccc\JJ	.
.	.	2r	.	2r	.	.	.	8e#L 8d\	.	.	.	.	.	16dd-X/LL	16dd-\LL	.	2r	.	.	16ddd-X/LL	16ddd-\LL	.
.	.	.	.	.	.	.	.	.	.	.	.	.	.	16ddn/	16dd\	.	.	.	.	16dddn/	16ddd\	.
.	.	.	.	.	.	.	.	16r	.	.	.	.	.	16ee-X/	16ee-\	.	.	.	.	16eee-X/	16eee-\	.
.	.	.	.	.	.	.	.	16e#Jk 16d\	.	.	.	.	.	16een/JJ	16ee\JJ	.	.	.	.	16eeen/JJ	16eee\JJ	.
.	.	.	.	.	.	.	.	8e#L 8d\	.	.	.	.	.	16ff/LL	16ff\LL	.	.	.	.	16fff/LL	16fff\LL	.
.	.	.	.	.	.	.	.	.	.	.	.	.	.	16gg-X/	16gg-\	.	.	.	.	16ggg-X/	16ggg-\	.
.	.	.	.	.	.	.	.	16r	.	.	.	.	.	16ggn/	16gg\	.	.	.	.	16gggn/	16ggg\	.
.	.	.	.	.	.	.	.	16e#Jk 16d\	[[	.	.	.	.	16aa-X/JJ	16aa-\JJ	.	.	.	.	16aaa-X/JJ	16aaa-\JJ	.
=53	=53	=53	=53	=53	=53	=53	=53	=53	=53	=53	=53	=53	=53	=53	=53	=53	=53	=53	=53	=53	=53	=53
!	!	!	!	!	!	!	!	!	!	!	!LO:DY:a	!	!	!	!	!	!	!LO:DY:a	!	!	!	!
1r	.	8Dn\	.	8f#X 8An\	.	1r	.	8f#L 8d\	fp	[1a [1A))	fp	4F#X 4Dn\))	sf	8aan/)	8aa\	[	8ff#XL 8ddn\	p	1ryy	8aaan/)	8aaa\	[
.	.	8r	.	8r	.	.	.	16r	.	.	.	.	.	8r	8ryy	.	16r	.	.	8r	8ryy	.
.	.	.	.	.	.	.	.	16f#Jk 16d\	.	.	.	.	.	.	.	.	16ff#Jk 16dd\	.	.	.	.	.
.	.	8Dn\	.	8f# 8An\	.	.	.	8f#L 8d\	.	.	.	4r	.	4r	4ryy	.	8ff#L 8ddn\	.	.	4r	4ryy	.
.	.	8r	.	8r	.	.	.	16r	.	.	.	.	.	.	.	.	16r	.	.	.	.	.
.	.	.	.	.	.	.	.	16f#Jk 16d\	.	.	.	.	.	.	.	.	16ff#Jk 16dd\	.	.	.	.	.
.	.	8Dn\	.	8f# 8An\	.	.	.	8f#L 8d\	.	.	.	2r	.	2r	2ryy	.	8ff#L 8ddn\	.	.	2r	2ryy	.
.	.	8r	.	8r	.	.	.	16r	.	.	.	.	.	.	.	.	16r	.	.	.	.	.
.	.	.	.	.	.	.	.	16f#Jk 16d\	.	.	.	.	.	.	.	.	16ff#Jk 16dd\	.	.	.	.	.
.	.	8Dn\	.	8f# 8An\	.	.	.	8f#L 8d\	.	.	.	.	.	.	.	.	8ff#L 8ddn\	.	.	.	.	.
.	.	8r	.	8r	.	.	.	16r	.	.	.	.	.	.	.	.	16r	.	.	.	.	.
.	.	.	.	.	.	.	.	16f#Jk 16d\	.	.	.	.	.	.	.	.	16ff#Jk 16dd\	.	.	.	.	.
*	*	*	*	*	*	*	*	*	*	*	*	*	*	*v	*v	*	*	*	*	*v	*v	*
=54	=54	=54	=54	=54	=54	=54	=54	=54	=54	=54	=54	=54	=54	=54	=54	=54	=54	=54	=54	=54
!	!	!	!	!	!	!	!	!	!	!	!	!	!	!LO:TX:a:t=a due	!	!	!	!	!	!
1r	.	8D#X\	.	8f#X 8A\	.	1ryy	.	8f#L 8e-X\	.	1a] 1A]	.	(1F#X (1Dn	p < [[	16f#X/LL	.	8ffn 8dd#X\	.	1ryy	(16ff#X\LL	.
.	.	.	.	.	.	.	.	.	.	.	.	.	.	16g/	.	.	.	.	16gg\	.
.	.	8r	.	8r	.	.	.	16r	.	.	.	.	.	16g#X/	.	8r	.	.	16gg#X\	.
.	.	.	.	.	.	.	.	16f#Jk 16e-\	.	.	.	.	.	16a/JJ	.	.	.	.	16aa\JJ	.
.	.	4r	.	4r	.	.	.	8f#L 8e-\	.	.	.	.	.	16b-X/LL	<	4r	.	.	16bb-X\LL	<
.	.	.	.	.	.	.	.	.	.	.	.	.	.	16bn/	.	.	.	.	16bbn\	.
.	.	.	.	.	.	.	.	16r	.	.	.	.	.	16cc/	.	.	.	.	16ccc\	.
.	.	.	.	.	.	.	.	16f#Jk 16e-\	.	.	.	.	.	16cc#X/JJ	.	.	.	.	16ccc#X\JJ	.
.	.	2r	.	2r	.	.	.	8f#L 8e-\	.	.	.	.	.	16dd\LL	.	2r	.	.	16ddd\LL	.
.	.	.	.	.	.	.	.	.	.	.	.	.	.	16ee-X\	.	.	.	.	16eee-X\	.
.	.	.	.	.	.	.	.	16r	.	.	.	.	.	16een\	.	.	.	.	16eeen\	.
.	.	.	.	.	.	.	.	16f#Jk 16e-\	.	.	.	.	.	16ff\JJ	.	.	.	.	16fff\JJ	.
.	.	.	.	.	.	.	.	8f#L 8e-\	.	.	.	.	.	16ff#X\LL	.	.	.	.	16ggg-X\LL	.
.	.	.	.	.	.	.	.	.	.	.	.	.	.	16gg\	.	.	.	.	16fff\	.
.	.	.	.	.	.	.	.	16r	.	.	.	.	.	16gg#X\	.	.	.	.	16eee\	.
.	.	.	.	.	.	.	.	16f#Jk 16e-\	.	.	.	.	.	16aa\JJ	[[	.	.	.	16eee-X\JJ)	[[
=55	=55	=55	=55	=55	=55	=55	=55	=55	=55	=55	=55	=55	=55	=55	=55	=55	=55	=55	=55	=55
*	*	*	*	*	*	*	*	*	*	*	*	*	*	*	*	*	*	*	*^	*
1r	.	8E-X\	.	8g 8B-X\	.	1r	.	8gL 8e-X\	sf	[1b- [1B-	fp	8G 8E-X\))	sf	8bb-X\	sf	8ggL 8ee-X\	p	1ryy	8eee-X/	8eee-\	sf
.	.	8r	.	8r	.	.	.	16r	.	.	.	8r	.	8r	.	16r	.	.	8r	8ryy	.
.	.	.	.	.	.	.	.	16gJk 16e-\	.	.	.	.	.	.	.	16ggJk 16ee-\	.	.	.	.	.
.	.	8E-\	.	8g 8B-\	.	.	.	8gL 8e-\	.	.	.	4r	.	4r	.	8ggL 8ee-\	.	.	4r	4ryy	.
.	.	8r	.	8r	.	.	.	16r	.	.	.	.	.	.	.	16r	.	.	.	.	.
.	.	.	.	.	.	.	.	16gJk 16e-\	.	.	.	.	.	.	.	16ggJk 16ee-\	.	.	.	.	.
.	.	8E-\	.	8g 8B-\	.	.	.	8gL 8e-\	.	.	.	2r	.	2r	.	8ggL 8ee-\	.	.	2r	2ryy	.
.	.	8r	.	8r	.	.	.	16r	.	.	.	.	.	.	.	16r	.	.	.	.	.
.	.	.	.	.	.	.	.	16gJk 16e-\	.	.	.	.	.	.	.	16ggJk 16ee-\	.	.	.	.	.
.	.	8E-\	.	8g 8B-\	.	.	.	8gL 8e-\	.	.	.	.	.	.	.	8ggL 8ee-\	.	.	.	.	.
.	.	8r	.	8r	.	.	.	16r	.	.	.	.	.	.	.	16r	.	.	.	.	.
.	.	.	.	.	.	.	.	16gJk 16e-\	.	.	.	.	.	.	.	16ggJk 16ee-\	.	.	.	.	.
*	*	*	*	*	*	*	*	*	*	*	*	*	*	*	*	*	*	*	*v	*v	*
=56	=56	=56	=56	=56	=56	=56	=56	=56	=56	=56	=56	=56	=56	=56	=56	=56	=56	=56	=56	=56
!	!	!	!	!	!	!	!	!	!	!	!	!	!	!LO:TX:a:t=a due	!	!	!	!	!	!
1r	.	8En\	.	8g 8B-X\	.	1ryy	.	8gL 8e\	p	1b-] 1B-]	<[	1G 1E-X	p < [[	16g/LL	.	8gg 8een\	.	1ryy	(16gg\LL	p
.	.	.	.	.	.	.	.	.	.	.	.	.	.	16a-X/	.	.	.	.	16aa-X\	.
.	.	8r	.	8r	.	.	.	16r	.	.	.	.	.	16an/	<	8r	.	.	16aan\	<
.	.	.	.	.	.	.	.	16gJk 16e\	<	.	.	.	.	16b-X/JJ	.	.	.	.	16bb-X\JJ	.
.	.	4r	.	4r	.	.	.	8gL 8e\	.	.	.	.	.	16bn/LL	.	4r	.	.	16bbn\LL	.
.	.	.	.	.	.	.	.	.	.	.	.	.	.	16cc/	.	.	.	.	16ccc\	.
.	.	.	.	.	.	.	.	16r	.	.	.	.	.	16cc#X/	.	.	.	.	16ccc#X\	.
.	.	.	.	.	.	.	.	16gJk 16e\	.	.	.	.	.	16dd/JJ	.	.	.	.	16ddd\JJ	.
.	.	2r	.	2r	.	.	.	8gL 8e\	.	.	.	.	.	16dd#X/LL	.	2r	.	.	16ddd#X\LL	.
.	.	.	.	.	.	.	.	.	.	.	.	.	.	16ee/	.	.	.	.	16eee\	.
.	.	.	.	.	.	.	.	16r	.	.	.	.	.	16ff/	.	.	.	.	16fff\	.
.	.	.	.	.	.	.	.	16gJk 16e\	.	.	.	.	.	16ff#X/JJ	.	.	.	.	16fff#X\JJ	.
.	.	.	.	.	.	.	.	8gL 8e\	.	.	.	.	.	16gg/LL	.	.	.	.	16ggg\LL	.
.	.	.	.	.	.	.	.	.	.	.	.	.	.	16gg#X/	.	.	.	.	16fff#\	.
.	.	.	.	.	.	.	.	16r	.	.	.	.	.	16aa/	[	.	.	.	16fffn\	.
.	.	.	.	.	.	.	.	16gJk 16e\	[[	.	.	.	.	16aa#X/JJ	.	.	.	.	16eeen\JJ)	[[
=57	=57	=57	=57	=57	=57	=57	=57	=57	=57	=57	=57	=57	=57	=57	=57	=57	=57	=57	=57	=57
*	*	*	*	*^	*	*^	*	*	*	*^	*	*^	*	*^	*	*	*	*	*	*
4GG/	f >	4.BBn/	f >	1rD	1r	.	4.ee 4.g/	4ryy	f	[2g [2e^^\	f	2bX^^\	[2BX\	f	4.E/	4.En\	f	4.bb^/	4.bb\	f	4.bb 4.gg^\	f	1ryy	4.ggg 4.bb^\	f
8GG/	]	.	.	.	.	.	.	8ryy	.	.	.	.	.	.	.	.	.	.	.	.	.	.	.	.	.
8r	f	8r	]	.	.	.	8b/	8b\	.	.	.	.	.	.	8E/	8E\	.	8gg 8ee\	8ryy	.	8gg 8ee\	.	.	8eee 8gg\	.
4GG/	>	4.BB/	>	.	.	.	4.ee 4.g/	4ryy	.	2g] 2e^^\]	.	2B^^/	2BX\]	.	4.BB^/	4.BBn\	.	4.bb 4.gg^\	2ryy	.	4.bb 4.gg^\	.	.	4.ggg 4.bb^\	.
8GG/	]	.	.	.	.	.	.	8ryy	.	.	.	.	.	.	.	.	.	.	.	.	.	.	.	.	.
8r	.	8r	]	.	.	.	8b/	8b\	.	.	.	.	.	.	8E/	8E\	.	8gg 8ee\	.	.	8gg 8ee\	.	.	8eee 8gg\	.
*	*	*	*	*	*	*	*	*	*	*	*	*v	*v	*	*	*	*	*v	*v	*	*	*	*	*	*
=58	=58	=58	=58	=58	=58	=58	=58	=58	=58	=58	=58	=58	=58	=58	=58	=58	=58	=58	=58	=58	=58	=58	=58
!	!	!	!	!	!	!	!	!	!	!LO:TX:a:t=|:problem	!	!	!	!LO:TX:a:t=|:problem	!	!	!	!	!	!	!	!	!
8GG/	.	8BB'/	.	1rD	1r	.	8ee'/L	8g\L	.	8g 8e\	.	8r	.	8BB/L	8BB\L	.	8bbL 8gg'\	.	8bbL 8gg'\	.	1ryy	8gggL 8bb'\	.
!	!	!	!	!	!	!	!	!	!	!	!	!	!	!LO:TX:a:t=|:problem	!	!	!	!	!	!	!	!	!
8r	.	8r	.	.	.	.	8b'/J	8b\J	.	8r	.	8e 8G/	.	8E/J	8E\J	.	8ggJ 8ee'\	.	8ggJ 8ee'\	.	.	8eeeJ 8gg'\	.
!	!	!	!	!	!	!	!	!	!	!LO:TX:a:t=|:problem	!	!	!	!LO:TX:a:t=|:problem	!	!	!	!	!	!	!	!	!
8GG/	.	4r	.	.	.	.	8ee'/L	8g\L	.	8g 8e\	.	8r	.	8BB/L	8BB\L	.	8bbL 8gg'\	.	8bbL 8gg'\	.	.	8gggL 8bb'\	.
!	!	!	!	!	!	!	!	!	!	!	!	!	!	!LO:TX:a:t=|:problem	!	!	!	!	!	!	!	!	!
8r	.	.	.	.	.	.	8b'/J	8b\J	.	8r	.	8e 8G/	.	8E/J	8E\J	.	8ggJ 8ee'\	.	8ggJ 8ee'\	.	.	8eeeJ 8gg'\	.
!	!	!	!	!	!	!	!	!	!	!LO:TX:a:t=|:problem	!	!	!	!LO:TX:a:t=|:problem	!	!	!	!	!	!	!	!	!
8GG/	.	2r	.	.	.	.	8ee'/L	8g\L	.	8g 8e\	.	8r	.	8BB/L	8BB\L	.	8bbL 8gg'\	.	8bbL 8gg'\	.	.	8gggL 8bb'\	.
!	!	!	!	!	!	!	!	!	!	!	!	!	!	!LO:TX:a:t=|:problem	!	!	!	!	!	!	!	!	!
8r	.	.	.	.	.	.	8b'/J	8b\J	.	8r	.	8e 8G/	.	8E/J	8E\J	.	8ggJ 8ee'\	.	8ggJ 8ee'\	.	.	8eeeJ 8gg'\	.
!	!	!	!	!	!	!	!	!	!	!LO:TX:a:t=|:problem	!	!	!	!LO:TX:a:t=|:problem	!	!	!	!	!	!	!	!	!
8GG/	.	.	.	.	.	.	8ee'/L	8g\L	.	8g 8e\	.	8r	.	8BB/L	8BB\L	.	8bbL 8gg'\	.	8bbL 8gg'\	.	.	8gggL 8bb'\	.
!	!	!	!	!	!	!	!	!	!	!	!	!	!	!LO:TX:a:t=|:problem	!	!	!	!	!	!	!	!	!
8r	.	.	.	.	.	.	8b'/J	8b\J	.	8r	.	8e 8G/	.	8E/J	8E\J	.	8ggJ 8ee'\	.	8ggJ 8ee'\	.	.	8eeeJ 8gg'\	.
*	*	*	*	*v	*v	*	*	*	*	*	*	*	*	*	*	*	*	*	*	*	*	*	*
=59	=59	=59	=59	=59	=59	=59	=59	=59	=59	=59	=59	=59	=59	=59	=59	=59	=59	=59	=59	=59	=59	=59
*	*	*	*	*	*	*	*	*	*^	*	*^	*	*	*	*	*^	*	*	*	*	*^	*
!LO:TX:a:t=Soli	!	!	!	!	!	!	!	!	!	!	!	!LO:TX:b:t=Soli	!	!	!	!	!	!	!	!	!	!	!	!	!	!
8r	.	1r	.	1r	.	4.dd^/	4.g\	.	8r	8ryy	ff	8r	8ryy	.	4.B/	4.B\	.	4.gg/	4.dd\	.	4.ff 4.dd\	.	1ryy	4.ddd/	4.gg\	.
!	!	!	!	!	!	!	!	!	!LO:TX:b:t=Soli.	!	!	!	!	!	!	!	!	!	!	!	!	!	!	!	!	!
!	!LO:DY:a	!	!	!	!	!	!	!	!LO:TX:a:t=|:problem	!	!LO:DY:a	!LO:TX:a:t=|:problem	!	!LO:DY:a	!	!	!	!	!	!	!	!	!	!	!	!
16GG'/LL	ff	.	.	.	.	.	.	.	16g/LL	16g\LL	ff	16g/LL	16g\LL	ff	.	.	.	.	.	.	.	.	.	.	.	.
!	!	!	!	!	!	!	!	!	!LO:TX:a:t=|:problem	!	!	!LO:TX:a:t=|:problem	!	!	!	!	!	!	!	!	!	!	!	!	!	!
16GG'/JJ	.	.	.	.	.	.	.	.	16g/JJ	16g\JJ	.	16g/JJ	16g\JJ	.	.	.	.	.	.	.	.	.	.	.	.	.
4GG^/	.	.	.	.	.	.	.	.	4g^^/	4g\	.	4g^^/	4g\	.	.	.	.	.	.	.	.	.	.	.	.	.
.	.	.	.	.	.	8g/	8g\	.	.	.	.	.	.	.	8B/	8B\	.	16gg/LL	8dd\	.	8ff 8dd\	.	.	8ddd/	16gg\LL	.
.	.	.	.	.	.	.	.	.	.	.	.	.	.	.	.	.	.	16aa/JJ	.	.	.	.	.	.	16aa\JJ	.
8r	.	.	.	.	.	4.dd/	4.g\	.	8r	8ryy	.	8r	8ryy	.	4.B/	4.B\	.	4.gg/	4.dd\	.	4.ff 4.dd\	.	.	4.ddd/	4.gg\	.
!	!	!	!	!	!	!	!	!	!LO:TX:a:t=|:problem	!	!	!LO:TX:a:t=|:problem	!	!	!	!	!	!	!	!	!	!	!	!	!	!
16GG/LL	.	.	.	.	.	.	.	.	16g/LL	16g\LL	.	16g/LL	16g\LL	.	.	.	.	.	.	.	.	.	.	.	.	.
!	!	!	!	!	!	!	!	!	!LO:TX:a:t=|:problem	!	!	!LO:TX:a:t=|:problem	!	!	!	!	!	!	!	!	!	!	!	!	!	!
16GG/JJ	.	.	.	.	.	.	.	.	16g/JJ	16g\JJ	.	16g/JJ	16g\JJ	.	.	.	.	.	.	.	.	.	.	.	.	.
4GG^/	.	.	.	.	.	.	.	.	[4g^^/	[4g\	.	[4g^^/	4g\	.	.	.	.	.	.	.	.	.	.	.	.	.
.	.	.	.	.	.	8g/	8g\	.	.	.	.	.	.	.	8B/	8B\	.	8aa/	8dd\	.	8ff 8dd\	.	.	8ddd/	16gg\LL	.
.	.	.	.	.	.	.	.	.	.	.	.	.	.	.	.	.	.	.	.	.	.	.	.	.	16aa\JJ	.
=60	=60	=60	=60	=60	=60	=60	=60	=60	=60	=60	=60	=60	=60	=60	=60	=60	=60	=60	=60	=60	=60	=60	=60	=60	=60	=60
*	*	*	*	*^	*	*	*	*	*	*	*	*	*	*	*	*	*	*	*	*	*	*	*	*	*	*
1r	.	1r	.	1rD	1r	.	8g/	8g\	.	8g/]	8g\]	.	8g/]	8g\	.	8B/	8B\	.	8gg/	8dd\	.	8gg 8dd\	.	1ryy	8ddd/	8gg\	.
!	!	!	!	!	!	!	!	!	!	!	!	!	!	!	!	!LO:TX:a:t=a due	!	!	!	!	!	!	!	!	!	!	!
.	.	.	.	.	.	.	8r	8ryy	.	8r	8ryy	.	8r	8ryy	.	16B\LL	8ryy	.	16g/LL	16g\LL	.	8r	.	.	16gg/LL	8r	.
.	.	.	.	.	.	.	.	.	.	.	.	.	.	.	.	16c\JJ	.	.	16a/JJ	16a\JJ	.	.	.	.	16aa/JJ	.	.
.	.	.	.	.	.	.	4r	4ryy	.	4r	4ryy	.	4r	4ryy	.	16d\LL	4ryy	.	16b/LL	16b\LL	.	4r	.	.	16bb/LL	16b\LL	.
.	.	.	.	.	.	.	.	.	.	.	.	.	.	.	.	16e\	.	.	16cc/	16cc\	.	.	.	.	16ccc/	16cc\	.
.	.	.	.	.	.	.	.	.	.	.	.	.	.	.	.	16f\	.	.	16dd/	16dd\	.	.	.	.	16ddd/	16dd\	.
.	.	.	.	.	.	.	.	.	.	.	.	.	.	.	.	16e\JJ	.	.	16ee/JJ	16ee\JJ	.	.	.	.	16eee/JJ	16ee\JJ	.
.	.	.	.	.	.	.	2r	2ryy	.	2r	2ryy	.	2r	2ryy	.	16d\LL	2ryy	.	16ff/LL	16ff\LL	.	2r	.	.	16fff/LL	16ff\LL	.
.	.	.	.	.	.	.	.	.	.	.	.	.	.	.	.	16c\	.	.	16ee/	16ee\	.	.	.	.	16eee/	16ee\	.
.	.	.	.	.	.	.	.	.	.	.	.	.	.	.	.	16B\	.	.	16dd/	16dd\	.	.	.	.	16ddd/	16dd\	.
.	.	.	.	.	.	.	.	.	.	.	.	.	.	.	.	16A\JJ	.	.	16ee/JJ	16ee\JJ	.	.	.	.	16eee/JJ	16ee\JJ	.
.	.	.	.	.	.	.	.	.	.	.	.	.	.	.	.	16G\LL	.	.	16ff/LL	16dd\LL	.	.	.	.	16ddd/LL	16ff\LL	.
.	.	.	.	.	.	.	.	.	.	.	.	.	.	.	.	16F\	.	.	16gg/	16ee\	.	.	.	.	16eee/	16gg\	.
.	.	.	.	.	.	.	.	.	.	.	.	.	.	.	.	16E\	.	.	16aa/	16cc\	.	.	.	.	16aa/	16aa\	.
.	.	.	.	.	.	.	.	.	.	.	.	.	.	.	.	16D\JJ	.	.	16bb/JJ	16dd\JJ	.	.	.	.	16bb/JJ	16bb\JJ	.
*	*	*	*	*v	*v	*	*	*	*	*	*	*	*	*	*	*	*	*	*v	*v	*	*	*	*	*	*	*
=61	=61	=61	=61	=61	=61	=61	=61	=61	=61	=61	=61	=61	=61	=61	=61	=61	=61	=61	=61	=61	=61	=61	=61	=61	=61
!	!	!	!	!	!	!	!	!	!	!	!	!	!	!	!	!	!	!	!	!	!	!	!LO:TX:a:t=Coma Sopre A=B.\npag 4.	!	!
!	!	!LO:TX:b:B:t=A=	!	!	!	!	!	!	!	!	!	!LO:TX:b:B:t=A=	!	!	!	!	!	!	!	!	!	!	!LO:TX:a:B:t=A=	!	!
4CT/	.	4C/	ff	4e 4G^^\	ff	4ee 4cc^\	4ryy	ff	4e 4cX^^\	2ryy	ff	4g 4c^^^/	2ryy	ff	4C^^/	4C\	ff	4ccc 4ee^^\	ff	4ccc 4ee^^\	ff	1ryy	4eee^^/	4ccc\	ff
!	!	!LO:TX:t=P:problem=frag. t.61-62 ukryte	!	!LO:TX:t=P:problem=frag. t.61-62 ukryte	!	!LO:TX:t=P:problem=frag. t.61-62 ukryte	!	!	!LO:TX:t=P:problem=frag. t.61-62 ukryte	!	!	!LO:TX:t=P:problem=frag. t.61-62 ukryte	!	!	!LO:TX:t=P:problem=frag. t.61-62 ukryte	!	!	!LO:TX:t=P:problem=frag. t.61-62 ukryte	!	!LO:TX:t=P:problem=frag. t.61-62 ukryte	!	!	!LO:TX:t=P:problem=frag. t.61-62 ukryte	!	!
8C/	.	8F\L	.	8cL 8A\	.	8cc 8f/	4ryy	.	8fXL 8c\	.	.	8a 8c/	.	.	8FF/L	4ryy	.	8eeL 8cc\	.	8aaL 8ff\	.	.	8ddd/L	8aa\L	.
8r	.	16r	.	16r	.	16r	.	.	16r	.	.	16r	.	.	16r	.	.	16r	.	16r	.	.	16rff	16ryy	.
.	.	16G\Jk	.	16gJk 16B\	.	16gg 16dd\	.	.	16dJk 16G\	.	.	16g 16BX/	.	.	16GG/Jk	.	.	16ggJk 16b\	.	16ggJk 16b\	.	.	16ccc/Jk	16gg\Jk	.
!	!	!	!	!	!	!	!	!	!	!	!	!	!	!	!	!	!	!LO:TX:t=P:problem=frag. t.37-38 ukryty	!	!	!	!	!	!	!
2r	.	4G^^\	.	4g 4B^^\	.	4gg 4dd^^\	4ryy	.	4d 4G^\	4ryy	.	4g 4B^/	4ryy	.	4GG^^/	2ryy	.	4gg 4b^^\	.	4gg 4b^^\	.	.	4bb^^/	4gg\	.
.	.	8c\	.	8e 8c\	.	8ee 8cc\	8ryy	.	8ryy	8eL 8cX\	.	8gL 8B/	8ryy	.	8C/L	.	.	8ee 8cc\	.	8ee 8cc\	.	.	8ccc/L	8ee\L	.
.	.	8r	.	16r	.	16r	16ryy	.	16r	16ryy	.	16r	16ryy	.	16r	.	.	16r	.	16r	.	.	16r	16ryy	.
.	.	.	.	16f 16A\	.	16dd/	16dd\	.	16d/	16d\Jk	.	16f/Jk	16f\	.	16D/Jk	.	.	16dd 16f/	.	16dd 16f/	.	.	16ff/Jk	16dd\Jk	.
*	*	*	*	*	*	*	*	*	*	*	*	*	*	*	*v	*v	*	*	*	*	*	*	*	*	*
=62	=62	=62	=62	=62	=62	=62	=62	=62	=62	=62	=62	=62	=62	=62	=62	=62	=62	=62	=62	=62	=62	=62	=62	=62
1ryy	.	4D^^\	.	(4f (4A^^\	.	4dd^^/	4dd\	.	4d/	4d\	.	4a 4f\	4ryy	.	4D^^\	.	4dd 4f^^/	.	4dd 4f^^/	.	1ryy	4ff^^/	4dd\	.
.	.	8G\L	.	8gL 8B\))	.	8b-X/L	8b-\L	.	8d/L	8d\L	.	8b-/L	8g\L	.	8F\L	.	8b-XL 8g/	.	8b-XL 8g/	.	.	8gg/L	8b-X\	.
.	.	16r	.	16r	.	16r	16ryy	.	16r	16ryy	.	16r	16ryy	.	16r	.	16r	.	16r	.	.	16r	8r	.
.	.	16A\Jk	.	16eJk 16c#X\	.	16a/Jk	16a\Jk	.	16e/Jk	16A\Jk	.	16a/Jk	16c#X\Jk	.	16A\Jk	.	16aJk 16c#X/	.	16aJk 16c#X/	.	.	16aa/Jk	.	.
.	.	8A^^\L	.	8eL 8c#^^\	.	8a^^/L	8a\L	.	8eL 8A^^\	2ryy	.	8aL 8c#^^/	2ryy	.	8A^^\L	.	8aL 8c#^^/	.	8aL 8c#^^/	.	.	8aa^^/L	2r	.
.	.	8d^^\J	.	8fJ 8d^^\	.	8f^^/J	8f\J	.	8fXJ 8d^^\	.	.	8fJ 8d^^/	.	.	8d^^\J	.	8fJ 8d^^/	.	8fJ 8d^^/	.	.	8gg^^/J	.	.
!	!	!LO:TX:b:B:t==B	!	!	!	!	!	!	!	!	!	!LO:TX:b:B:t==B	!	!	!	!	!	!	!	!	!	!LO:TX:a:B:t==B	!	!
.	.	4r	.	4r	.	4r	4ryy	.	4r	.	.	4r	.	.	4r	.	4r	.	4r	.	.	4r	.	.
*	*	*	*	*	*	*v	*v	*	*	*	*	*v	*v	*	*	*	*	*	*	*	*	*	*	*
=63	=63	=63	=63	=63	=63	=63	=63	=63	=63	=63	=63	=63	=63	=63	=63	=63	=63	=63	=63	=63	=63	=63
*	*	*	*	*	*	*	*	*	*	*	*	*	*^	*	*	*	*	*	*	*	*	*
4CT/	ff	4FF^^/	ff	4f 4A^^\	ff	4ff 4a^^\	ff	4a 4A^^\	2ryy	ff	4f 4c\	ff	4FF^^/	4FF\	ff	4aa 4cc^^\	ff	4aa 4cc^^\	ff	1r	4fff^^/	4fff\	ff
!	!	!	!	!	!	!	!	!	!	!	!	!	!	!	!	!LO:TX:a:t=Col Oboi	!	!	!	!	!	!	!
!	!	!	!	!	!	!	!	!	!	!	!	!	!	!	!	!LO:TX:t=P:problem=frag. t. 63-64 ukryte	!	!	!	!	!	!	!
8C/	.	8BB-X/L	.	8dL 8B-X\	.	8ddL 8f/	.	8fXL 8d\	.	.	8fL 8d\	.	8BB-X/L	8BB-\L	.	8bb-XL 8dd\	.	8bb-XL 8dd\	.	.	8ddd/L	8ddd\L	.
8r	.	16r	.	16r	.	16r	.	16r	.	.	16r	.	16r	16ryy	.	16r	.	16r	.	.	16raa	16ryy	.
.	.	16C/Jk	.	16eJk 16G\	.	16ccJk 16e/	.	16eJk 16cX\	.	.	16gJk 16c\	.	16C/Jk	16C\Jk	.	16ggJk 16ee\	.	16ggJk 16ee\	.	.	16ccc/Jk	16ccc\Jk	.
2r	.	4C\	.	4e 4G\	.	4cc 4e/	.	4e 4c\	4ryy	.	4g 4c\	.	4C/	4C\	.	4gg 4ee^^\	.	4gg 4ee^^\	.	.	4ccc^^/	4ccc\	.
!	!	!LO:TX:t=P:problem=mixed beam	!	!	!	!	!	!	!	!	!	!	!	!	!	!	!	!	!	!	!	!	!
.	.	8F/L	.	8fL 8A\	.	8aL 8f/	.	8c/L	8c\L	.	8aL 8f\	.	8F/L	8F\L	.	8aaL 8ff\	.	8aaL 8ff\	.	.	8aa/L	8aa\L	.
.	.	16r	.	16r	.	16r	.	16r	16ryy	.	16r	.	16r	16ryy	.	16rg	.	16rg	.	.	16rff	16ryy	.
.	.	16GG/Jk	.	16dJk 16B-X\	.	16ddJk 16g/	.	16g/Jk	16B-X\Jk	.	16b-Jk 16g\	.	16G/Jk	16G\Jk	.	16ggJk 16b-X\	.	16ggJk 16b-X\	.	.	16gg/Jk	16gg\Jk	.
=64	=64	=64	=64	=64	=64	=64	=64	=64	=64	=64	=64	=64	=64	=64	=64	=64	=64	=64	=64	=64	=64	=64	=64
1r	.	4GG^^/	.	4d 4B-X^^\	.	4dd 4g^^/	.	4g^^/	(4B-X\	.	4b- 4g\	.	4G^^/	4G\	.	4gg 4b-X^^\	.	4gg 4b-X^^\	.	1r	4gg^^/	4gg\	.
.	.	8C\L	.	8e-XL 8c\	.	8ccL 8g/	.	8g/L	8cX\L)	.	8gL 8e-X\	.	8c/L	8c\L	.	8ee-XL 8cc\	.	8ee-XL 8cc\	.	.	8ee-X/L	8ee-\L	.
.	.	16r	.	16r	.	16r	.	16r	16ryy	.	16r	.	16r	16ryy	.	16r	.	16r	.	.	16rff	16ryy	.
.	.	16D\Jk	.	16dJk 16A\	.	16aJk 16f#X/	.	16f#/Jk	16d\Jk	.	16aJk 16A\	.	16d/Jk	16d\Jk	.	16ddJk 16f#X\	.	16ddJk 16f#X\	.	.	16dd/Jk	16dd\Jk	.
.	.	8D^^\L	.	8f#XL 8A^^\	.	8aL 8f#^^/	.	8f#^^/L	8d\L	.	8aL 8A^^/	.	8d^^/L	8d\L	.	8ddL 8f#^^\	.	8ddL 8f#^^\	.	.	8cc^^/L	8cc\L	.
.	.	8G^^\J	.	8gJ 8B-^^\	.	8b-XJ 8g^^/	.	8g^^/J	8d\J	.	8gJ 8B-^^/	.	8g^^/J	8g\J	.	8b-XJ 8g^^\	.	8b-XJ 8g^^\	.	.	8b-X^^/J	8b-\J	.
.	.	4r	.	4r	.	4r	.	4r	4ryy	.	4r	.	4r	4ryy	.	4r	.	4r	.	.	4r	4ryy	.
*	*	*	*	*	*	*	*	*v	*v	*	*	*	*v	*v	*	*	*	*	*	*	*v	*v	*
=65	=65	=65	=65	=65	=65	=65	=65	=65	=65	=65	=65	=65	=65	=65	=65	=65	=65	=65	=65	=65
!	!	!	!	!	!	!	!	!	!	!	!	!	!	!LO:TX:a:t=Soli	!	!	!	!	!LO:TX:a:B:t=U	!
1r	.	1r	.	1r	.	1r	.	1r	.	1r	.	[1B-X [1BB-X	p	(4..b-X 4..g\	p <	1r	.	1ryy	1r	.
.	.	.	.	.	.	.	.	.	.	.	.	.	.	16gg 16b-X\)	[	.	.	.	.	.
.	.	.	.	.	.	.	.	.	.	.	.	.	.	(4..gg 4..b-\	>	.	.	.	.	.
.	.	.	.	.	.	.	.	.	.	.	.	.	.	16ff 16a-X\)	]	.	.	.	.	.
=66	=66	=66	=66	=66	=66	=66	=66	=66	=66	=66	=66	=66	=66	=66	=66	=66	=66	=66	=66	=66
.	.	.	.	.	.	.	.	.	.	.	.	.	.	8qff/	.	.	.	.	.	.
*	*	*	*	*	*	*	*	*	*	*	*	*	*	*^	*	*	*	*	*	*
1r	.	1r	.	1r	.	1r	.	1r	.	1r	.	1B-_ 1BB-_	.	8.ee-XL 8.g/	2ryy	.	1r	.	1ryy	1r	.
.	.	.	.	.	.	.	.	.	.	.	.	.	.	16ddK 16b-X/	.	.	.	.	.	.	.
.	.	.	.	.	.	.	.	.	.	.	.	.	.	8.ee- 8.g/	.	.	.	.	.	.	.
.	.	.	.	.	.	.	.	.	.	.	.	.	.	16eenJk 16g/	.	.	.	.	.	.	.
.	.	.	.	.	.	.	.	.	.	.	.	.	.	(4ff^/	8.a-X\L	.	.	.	.	.	.
.	.	.	.	.	.	.	.	.	.	.	.	.	.	.	16cc\K	.	.	.	.	.	.
.	.	.	.	.	.	.	.	.	.	.	.	.	.	8b-/L)	8b-X\	.	.	.	.	.	.
.	.	.	.	.	.	.	.	.	.	.	.	.	.	16r	16ryy	.	.	.	.	.	.
.	.	.	.	.	.	.	.	.	.	.	.	.	.	16b-/Jk	16a-\Jk	.	.	.	.	.	.
*	*	*	*	*	*	*	*	*	*	*	*	*	*	*v	*v	*	*	*	*	*	*
=67	=67	=67	=67	=67	=67	=67	=67	=67	=67	=67	=67	=67	=67	=67	=67	=67	=67	=67	=67	=67
1r	.	1r	.	1r	.	1r	.	1r	.	1r	.	1B-] 1BB-]	.	(4..b-X (4..g/	<	1r	.	1ryy	1r	.
.	.	.	.	.	.	.	.	.	.	.	.	.	.	16bb-X 16gg\))	[	.	.	.	.	.
.	.	.	.	.	.	.	.	.	.	.	.	.	.	(4..bb- (4..gg\	>	.	.	.	.	.
.	.	.	.	.	.	.	.	.	.	.	.	.	.	16aa-X 16ff\))	]	.	.	.	.	.
=68	=68	=68	=68	=68	=68	=68	=68	=68	=68	=68	=68	=68	=68	=68	=68	=68	=68	=68	=68	=68
.	.	.	.	.	.	.	.	.	.	.	.	.	.	8qaa-X 8qff/	.	.	.	.	.	.
*	*	*	*	*	*	*	*	*	*	*	*	*^	*	*	*	*	*	*	*	*
1r	.	1r	.	1r	.	1r	.	1r	.	1r	.	(2.B-X/	(2E-X\	.	8.ggL 8.ee-X\	.	1r	.	1ryy	1r	.
.	.	.	.	.	.	.	.	.	.	.	.	.	.	.	16ffK 16dd\	.	.	.	.	.	.
.	.	.	.	.	.	.	.	.	.	.	.	.	.	.	8.gg 8.ee-\	.	.	.	.	.	.
.	.	.	.	.	.	.	.	.	.	.	.	.	.	.	16aa-Jk 16ff\	.	.	.	.	.	.
.	.	.	.	.	.	.	.	.	.	.	.	.	8D\L	.	(4aa- (4ff^\	.	.	.	.	.	.
.	.	.	.	.	.	.	.	.	.	.	.	.	8D-X\	.	.	.	.	.	.	.	.
.	.	.	.	.	.	.	.	.	.	.	.	8A-X/L	8C\	.	(8a-XL 8f/))	>	.	.	.	.	.
.	.	.	.	.	.	.	.	.	.	.	.	8An/J)	8BBn\J)	.	8anJ 8f#X/	]]	.	.	.	.	.
*	*	*	*	*	*	*	*	*	*	*	*	*v	*v	*	*	*	*	*	*	*	*
=69	=69	=69	=69	=69	=69	=69	=69	=69	=69	=69	=69	=69	=69	=69	=69	=69	=69	=69	=69	=69
!	!	!	!	!	!	!	!	!	!	!	!	!	!	!	!	!LO:TX:a:t=Soli	!	!	!	!
1r	.	1r	.	1r	.	1r	.	1r	.	1r	.	[1Bn [1BBn	.	8bn 8g#X/)	.	(4..bn (4..g#X/	p <	1ryy	1r	.
.	.	.	.	.	.	.	.	.	.	.	.	.	.	8r	.	.	.	.	.	.
.	.	.	.	.	.	.	.	.	.	.	.	.	.	4r	.	.	.	.	.	.
.	.	.	.	.	.	.	.	.	.	.	.	.	.	.	.	16gg#X 16b\))	.	.	.	.
.	.	.	.	.	.	.	.	.	.	.	.	.	.	2r	.	(4..gg# (4..b\	[ >	.	.	.
.	.	.	.	.	.	.	.	.	.	.	.	.	.	.	.	16ff#X 16a\))	]]	.	.	.
=70	=70	=70	=70	=70	=70	=70	=70	=70	=70	=70	=70	=70	=70	=70	=70	=70	=70	=70	=70	=70
.	.	.	.	.	.	.	.	.	.	.	.	.	.	.	.	8qff#X/	.	.	.	.
*	*	*	*	*	*	*	*	*	*	*	*	*	*	*	*	*^	*	*	*	*
1r	.	1r	.	1r	.	1r	.	1r	.	1r	.	1B_ 1BB_	.	1r	.	8.eeL 8.g#X/	2ryy	.	1ryy	1r	.
.	.	.	.	.	.	.	.	.	.	.	.	.	.	.	.	16dd#XK 16f#X/	.	.	.	.	.
.	.	.	.	.	.	.	.	.	.	.	.	.	.	.	.	8.ee 8.g#/	.	.	.	.	.
.	.	.	.	.	.	.	.	.	.	.	.	.	.	.	.	16ee#XJk 16g#/	.	.	.	.	.
.	.	.	.	.	.	.	.	.	.	.	.	.	.	.	.	(4ff#X^/	8.a\L	.	.	.	.
.	.	.	.	.	.	.	.	.	.	.	.	.	.	.	.	.	16cc#X\K	.	.	.	.
.	.	.	.	.	.	.	.	.	.	.	.	.	.	.	.	8b/L)	8b\	.	.	.	.
.	.	.	.	.	.	.	.	.	.	.	.	.	.	.	.	16r	16ryy	.	.	.	.
.	.	.	.	.	.	.	.	.	.	.	.	.	.	.	.	16b/Jk	16a\Jk	.	.	.	.
*	*	*	*	*	*	*	*	*	*	*	*	*	*	*	*	*v	*v	*	*	*	*
=71	=71	=71	=71	=71	=71	=71	=71	=71	=71	=71	=71	=71	=71	=71	=71	=71	=71	=71	=71	=71
1r	.	1r	.	1r	.	1r	.	1r	.	1r	.	(1B] 1BB]	.	1r	.	(4..b (4..g#X/	<	1ryy	1r	.
.	.	.	.	.	.	.	.	.	.	.	.	.	.	.	.	16bb 16gg#X\))	.	.	.	.
.	.	.	.	.	.	.	.	.	.	.	.	.	.	.	.	(4..bb (4..gg#\	[ >	.	.	.
.	.	.	.	.	.	.	.	.	.	.	.	.	.	.	.	16aa 16ff#X\))	]	.	.	.
=72	=72	=72	=72	=72	=72	=72	=72	=72	=72	=72	=72	=72	=72	=72	=72	=72	=72	=72	=72	=72
.	.	.	.	.	.	.	.	.	.	.	.	.	.	.	.	8qaa 8qff#X/	.	.	.	.
*	*	*	*	*	*	*	*	*	*	*	*	*^	*	*	*	*	*	*	*	*
1r	.	1r	.	1r	.	1r	.	1r	.	1r	.	(2.B/	2En\)	.	1r	.	8.gg#XL 8.ee\	.	1ryy	1r	.
.	.	.	.	.	.	.	.	.	.	.	.	.	.	.	.	.	16ff#XK 16dd#X\	.	.	.	.
.	.	.	.	.	.	.	.	.	.	.	.	.	.	.	.	.	8.gg# 8.ee\	.	.	.	.
.	.	.	.	.	.	.	.	.	.	.	.	.	.	.	.	.	16aaJk 16ff#\	.	.	.	.
.	.	.	.	.	.	.	.	.	.	.	.	.	8D#X\L	.	.	.	(4aa (4ff#^\	.	.	.	.
.	.	.	.	.	.	.	.	.	.	.	.	.	8Dn\	.	.	.	.	.	.	.	.
.	.	.	.	.	.	.	.	.	.	.	.	8A/L	8C#X\	.	.	.	8aL 8f#X/))	>	.	.	.
.	.	.	.	.	.	.	.	.	.	.	.	8B-X/J)	8Cn\J	.	.	.	8b-XJ 8g/	]]	.	.	.
*	*	*	*	*	*	*	*	*	*	*	*	*v	*v	*	*	*	*	*	*	*	*
=73	=73	=73	=73	=73	=73	=73	=73	=73	=73	=73	=73	=73	=73	=73	=73	=73	=73	=73	=73	=73
1ryy	.	1ryy	.	1ryy	.	1ryy	.	1r	.	1r	.	([1c [1C	.	(4..cc 4..a\	<	4cc 4a\	.	1ryy	1r	.
.	.	.	.	.	.	.	.	.	.	.	.	.	.	.	.	4r	.	.	.	.
.	.	.	.	.	.	.	.	.	.	.	.	.	.	16aa 16cc\)	.	.	.	.	.	.
.	.	.	.	.	.	.	.	.	.	.	.	.	.	(4..aa 4..cc\	[ >	2r	.	.	.	.
.	.	.	.	.	.	.	.	.	.	.	.	.	.	16gg 16b-X\)	]	.	.	.	.	.
=74	=74	=74	=74	=74	=74	=74	=74	=74	=74	=74	=74	=74	=74	=74	=74	=74	=74	=74	=74	=74
.	.	.	.	.	.	.	.	.	.	.	.	.	.	8qgg/	.	.	.	.	.	.
*	*	*	*	*	*	*	*	*	*	*	*	*^	*	*^	*	*	*	*	*	*
1ryy	.	1ryy	.	1ryy	.	1ryy	.	1r	.	1r	.	2c/]	2C\]	.	8.ffL 8.a\	2ryy	.	1r	.	1ryy	1r	.
.	.	.	.	.	.	.	.	.	.	.	.	.	.	.	16eeK 16g#X\	.	.	.	.	.	.	.
.	.	.	.	.	.	.	.	.	.	.	.	.	.	.	8.ff 8.a\	.	.	.	.	.	.	.
.	.	.	.	.	.	.	.	.	.	.	.	.	.	.	16ff#XJk 16a\	.	.	.	.	.	.	.
!	!	!	!	!	!	!	!	!	!	!	!	!	!	!	!	!	!LO:DY:a	!	!	!	!	!
.	.	.	.	.	.	.	.	.	.	.	.	2B-X 2G^\)	2ryy	.	(4..gg/	[2b-X\	>	.	.	.	.	.
.	.	.	.	.	.	.	.	.	.	.	.	.	.	.	32ffn/LLL	.	]	.	.	.	.	.
.	.	.	.	.	.	.	.	.	.	.	.	.	.	.	32ee-X/JJJ	.	.	.	.	.	.	.
*	*	*	*	*	*	*	*	*	*	*	*	*v	*v	*	*	*	*	*	*	*	*	*
=75	=75	=75	=75	=75	=75	=75	=75	=75	=75	=75	=75	=75	=75	=75	=75	=75	=75	=75	=75	=75	=75
1ryy	.	1ryy	.	1ryy	.	1ryy	.	1r	.	1r	.	[1d [1D	.	8dd/)	8b-\]	.	(4..dd 4..b-X\	<	1ryy	1r	.
.	.	.	.	.	.	.	.	.	.	.	.	.	.	8r	8ryy	.	.	.	.	.	.
.	.	.	.	.	.	.	.	.	.	.	.	.	.	4r	4ryy	.	.	.	.	.	.
.	.	.	.	.	.	.	.	.	.	.	.	.	.	.	.	.	16bb-X 16dd\)	[	.	.	.
.	.	.	.	.	.	.	.	.	.	.	.	.	.	2r	2ryy	.	(4..bb- 4..dd\	>	.	.	.
.	.	.	.	.	.	.	.	.	.	.	.	.	.	.	.	.	16aa 16cc\)	]	.	.	.
*	*	*	*	*	*	*	*	*	*	*	*	*	*	*v	*v	*	*	*	*	*	*
=76	=76	=76	=76	=76	=76	=76	=76	=76	=76	=76	=76	=76	=76	=76	=76	=76	=76	=76	=76	=76
.	.	.	.	.	.	.	.	.	.	.	.	.	.	.	.	8qaa/	.	.	.	.
*	*	*	*	*	*	*	*	*	*	*	*	*	*	*	*	*^	*	*	*	*
1ryy	.	1ryy	.	1ryy	.	1ryy	.	1r	.	1r	.	2d] 2D\]	.	1r	.	8.ggL 8.b-X\	2ryy	.	1ryy	1r	.
.	.	.	.	.	.	.	.	.	.	.	.	.	.	.	.	16ff#XK 16a\	.	.	.	.	.
.	.	.	.	.	.	.	.	.	.	.	.	.	.	.	.	8.gg 8.b-\	.	.	.	.	.
.	.	.	.	.	.	.	.	.	.	.	.	.	.	.	.	16gg#XJk 16dd\	.	.	.	.	.
.	.	.	.	.	.	.	.	.	.	.	.	2c 2A^\	.	.	.	([4aa/	(4dd\	.	.	.	.
.	.	.	.	.	.	.	.	.	.	.	.	.	.	.	.	16aa/LL]	8a\)	.	.	.	.
.	.	.	.	.	.	.	.	.	.	.	.	.	.	.	.	16gg#/	.	.	.	.	.
.	.	.	.	.	.	.	.	.	.	.	.	.	.	.	.	16aa/	8r	.	.	.	.
.	.	.	.	.	.	.	.	.	.	.	.	.	.	.	.	16bbn/JJ)	.	.	.	.	.
*	*	*	*	*	*	*	*	*	*	*	*	*	*	*	*	*v	*v	*	*	*	*
=77	=77	=77	=77	=77	=77	=77	=77	=77	=77	=77	=77	=77	=77	=77	=77	=77	=77	=77	=77	=77
*	*	*	*	*	*	*^	*	*	*	*	*	*	*	*	*	*	*	*	*	*
1ryy	.	1r	.	1r	.	4.ee^/	1r	.	4.e 4.A^/	f	4.e 4.E^/	f	4c 4A\	.	4.ee 4.cc^\	f	4.aa 4.cc^\	f	1ryy	4.eee 4.ccc^\	f
.	.	.	.	.	.	.	.	.	.	.	.	.	4r	.	.	.	.	.	.	.	.
.	.	.	.	.	.	8a/	.	.	8e 8A/	.	8a 8A/	.	.	.	8cc 8a\	.	8ee 8cc\	.	.	8ccc 8aa\	.
.	.	.	.	.	.	4.ee^/	.	.	4.e 4.A^/	.	4.e 4.E^/	.	2r	.	4.ee 4.cc\	.	4.aa 4.cc^\	.	.	4.eee 4.ccc^\	.
.	.	.	.	.	.	8a/	.	.	8e 8A/	.	8a 8A/	.	.	.	8cc 8a\	.	8ee 8cc\	.	.	8ccc 8aa\	.
=78	=78	=78	=78	=78	=78	=78	=78	=78	=78	=78	=78	=78	=78	=78	=78	=78	=78	=78	=78	=78	=78
1ryy	.	1r	.	1r	.	8ee'/L	1r	.	8eL 8A\	.	8eL 8E'/	.	1r	.	8eeL 8cc'\	.	8aaL 8cc'\	.	1ryy	8eeeL 8ccc'\	.
.	.	.	.	.	.	8a'/J	.	.	8e 8A\	.	8aJ 8A'/	.	.	.	8ccJ 8a'\	.	8eeJ 8cc'\	.	.	8cccJ 8aa'\	.
.	.	.	.	.	.	8ee'/L	.	.	8e 8A\	.	8eL 8E'/	.	.	.	8eeL 8cc'\	.	8aaL 8cc'\	.	.	8eeeL 8ccc'\	.
.	.	.	.	.	.	8a'/J	.	.	8eJ 8A\	.	8aJ 8A'/	.	.	.	8ccJ 8a'\	.	8eeJ 8cc'\	.	.	8cccJ 8aa'\	.
.	.	.	.	.	.	8ee'/L	.	.	8eL 8A\	.	8eL 8E'/	.	.	.	8eeL 8cc'\	.	8aaL 8cc'\	.	.	8eeeL 8ccc'\	.
.	.	.	.	.	.	8a'/J	.	.	8e 8A\	.	8aJ 8A'/	.	.	.	8ccJ 8a'\	.	8eeJ 8cc'\	.	.	8cccJ 8aa'\	.
.	.	.	.	.	.	8ee'/L	.	.	8e 8A\	.	8eL 8E'/	.	.	.	8eeL 8cc'\	.	8aaL 8cc'\	.	.	8eeeL 8ccc'\	.
.	.	.	.	.	.	8a'/J	.	.	8eJ 8A\	.	8aJ 8A'/	.	.	.	8ccJ 8a'\	.	8eeJ 8cc'\	.	.	8cccJ 8aa'\	.
=79	=79	=79	=79	=79	=79	=79	=79	=79	=79	=79	=79	=79	=79	=79	=79	=79	=79	=79	=79	=79	=79
*	*	*	*	*	*	*	*	*	*	*	*	*	*^	*	*^	*	*	*	*	*	*
1r	.	8F#X\	.	8d 8A\	.	8dd/	8dd\	.	8d 8D/	.	8a 8A/	.	(8FF#X/L	8FF#\L	.	(16aa^/LL	8dd\	.	8aa 8dd\	.	1ryy	8ddd 8aa\	.
.	.	.	.	.	.	.	.	.	.	.	.	.	.	.	.	16bb/	.	.	.	.	.	.	.
.	.	8r	.	8r	.	8r	8ryy	.	8r	.	8r	.	8GG/	8GG\	.	16aa/	8r	.	8r	.	.	8r	.
.	.	.	.	.	.	.	.	.	.	.	.	.	.	.	.	16gg/JJ	.	.	.	.	.	.	.
.	.	4r	.	4r	.	4r	4ryy	.	4r	.	4r	.	8AA/	8AA\	.	16ff#X/LL	4r	.	4r	.	.	4r	.
.	.	.	.	.	.	.	.	.	.	.	.	.	.	.	.	16gg/	.	.	.	.	.	.	.
.	.	.	.	.	.	.	.	.	.	.	.	.	8BB/J	8BB\J	.	16ff#/	.	.	.	.	.	.	.
.	.	.	.	.	.	.	.	.	.	.	.	.	.	.	.	16ee/JJ	.	.	.	.	.	.	.
!	!	!	!	!	!	!	!	!	!	!	!	!	!	!	!	!	!	!	!	!	!	!LO:TX:b:t=Piccolo	!
.	.	2r	.	2r	.	2r	2ryy	.	2r	.	2r	.	8C/L	8C\L	.	16dd/LL	2r	.	2r	.	.	2r	.
.	.	.	.	.	.	.	.	.	.	.	.	.	.	.	.	16ee/	.	.	.	.	.	.	.
.	.	.	.	.	.	.	.	.	.	.	.	.	8D/	8D\	.	16dd/	.	.	.	.	.	.	.
.	.	.	.	.	.	.	.	.	.	.	.	.	.	.	.	16cc/JJ	.	.	.	.	.	.	.
.	.	.	.	.	.	.	.	.	.	.	.	.	8E/	8E\	.	16b/LL	.	.	.	.	.	.	.
.	.	.	.	.	.	.	.	.	.	.	.	.	.	.	.	16cc/	.	.	.	.	.	.	.
.	.	.	.	.	.	.	.	.	.	.	.	.	8F#X/J	8F#\J	.	16b/	.	.	.	.	.	.	.
.	.	.	.	.	.	.	.	.	.	.	.	.	.	.	.	16a/JJ)	.	.	.	.	.	.	.
=80	=80	=80	=80	=80	=80	=80	=80	=80	=80	=80	=80	=80	=80	=80	=80	=80	=80	=80	=80	=80	=80	=80	=80
*	*	*	*	*	*	*	*	*	*	*	*	*	*	*	*	*	*	*	*	*	*	*^	*
!	!	!	!	!	!	!	!	!	!	!	!	!	!	!	!	!LO:TX:b:t=1mo	!	!	!	!	!	!	!	!
!	!	!	!	!	!	!	!	!	!	!	!	!	!	!	!	!LO:TX:a:t=2do	!	!	!	!	!	!	!	!
1r	.	8G\	.	8d 8B\	.	8dd/	8dd\	.	8g 8d\	.	8g 8BX/	.	8G/L	8G\L	.	8g/	8gg/	.	8bb 8dd\	.	1ryy	1rccc	(16bb^\LL	.
.	.	.	.	.	.	.	.	.	.	.	.	.	.	.	.	.	.	.	.	.	.	.	16ccc\	.
.	.	8r	.	8r	.	8r	8ryy	.	8r	.	8r	.	8F#X/	8F#\	.	8r	8ryy	.	8r	.	.	.	16bb\	.
.	.	.	.	.	.	.	.	.	.	.	.	.	.	.	.	.	.	.	.	.	.	.	16aa\JJ	.
.	.	4r	.	4r	.	4r	4ryy	.	4r	.	4r	.	8E/	8E\	.	4r	4ryy	.	4r	.	.	.	16gg\LL	.
.	.	.	.	.	.	.	.	.	.	.	.	.	.	.	.	.	.	.	.	.	.	.	16aa\	.
.	.	.	.	.	.	.	.	.	.	.	.	.	8D/J	8D\J	.	.	.	.	.	.	.	.	16gg\	.
.	.	.	.	.	.	.	.	.	.	.	.	.	.	.	.	.	.	.	.	.	.	.	16ff#X\JJ	.
.	.	2r	.	2r	.	2r	2ryy	.	2r	.	2r	.	8C/L	8C\L	.	2r	2ryy	.	2r	.	.	.	16ee\LL	.
.	.	.	.	.	.	.	.	.	.	.	.	.	.	.	.	.	.	.	.	.	.	.	16ff#\	.
.	.	.	.	.	.	.	.	.	.	.	.	.	8BB/	8BB\	.	.	.	.	.	.	.	.	16ee\	.
.	.	.	.	.	.	.	.	.	.	.	.	.	.	.	.	.	.	.	.	.	.	.	16dd\JJ	.
.	.	.	.	.	.	.	.	.	.	.	.	.	8AA/	8AA\	.	.	.	.	.	.	.	.	16cc\LL	.
.	.	.	.	.	.	.	.	.	.	.	.	.	.	.	.	.	.	.	.	.	.	.	16dd\	.
.	.	.	.	.	.	.	.	.	.	.	.	.	8GG/J)	8GG\J	.	.	.	.	.	.	.	.	16cc\	.
.	.	.	.	.	.	.	.	.	.	.	.	.	.	.	.	.	.	.	.	.	.	.	16b\JJ)	.
*	*	*	*	*	*	*v	*v	*	*	*	*	*	*	*	*	*v	*v	*	*	*	*	*	*	*
=81	=81	=81	=81	=81	=81	=81	=81	=81	=81	=81	=81	=81	=81	=81	=81	=81	=81	=81	=81	=81	=81	=81
*	*	*	*	*	*	*	*	*^	*	*	*	*	*	*	*	*	*	*	*	*	*	*
!	!	!	!	!	!	!	!	!	!	!	!	!	!	!	!	!	!	!	!	!	!LO:TX:a:t=Flauto	!	!
1r	.	8G#X\	.	8e 8B\	.	8ee 8b\	.	8e/	8d\	.	8e 8BX/	.	(8GG#X/L	8GG#\L	.	8ee 8b\	.	8bb 8ee\	.	1ryy	16ddd^\LL	8dd\	.
.	.	.	.	.	.	.	.	.	.	.	.	.	.	.	.	.	.	.	.	.	16eee\	.	.
.	.	8r	.	8r	.	8r	.	8r	8ryy	.	8r	.	8AA/	8AA\	.	8r	.	8r	.	.	16ddd\	8r	.
.	.	.	.	.	.	.	.	.	.	.	.	.	.	.	.	.	.	.	.	.	16ccc\JJ	.	.
.	.	4r	.	4r	.	4r	.	4r	4ryy	.	4r	.	8BB/	8BB\	.	4r	.	4r	.	.	16bb\LL	4r	.
.	.	.	.	.	.	.	.	.	.	.	.	.	.	.	.	.	.	.	.	.	16ccc\	.	.
.	.	.	.	.	.	.	.	.	.	.	.	.	8C/J	8C\J	.	.	.	.	.	.	16bb\	.	.
.	.	.	.	.	.	.	.	.	.	.	.	.	.	.	.	.	.	.	.	.	16aa\JJ	.	.
.	.	2r	.	2r	.	2r	.	2r	2ryy	.	2r	.	8D/L	8D\L	.	2r	.	2r	.	.	16gg#X\LL	2r	.
.	.	.	.	.	.	.	.	.	.	.	.	.	.	.	.	.	.	.	.	.	16aa\	.	.
.	.	.	.	.	.	.	.	.	.	.	.	.	8E/	8E\	.	.	.	.	.	.	16bb\	.	.
.	.	.	.	.	.	.	.	.	.	.	.	.	.	.	.	.	.	.	.	.	16eee\JJ	.	.
.	.	.	.	.	.	.	.	.	.	.	.	.	8F#X/	8F#\	.	.	.	.	.	.	16ddd\LL	.	.
.	.	.	.	.	.	.	.	.	.	.	.	.	.	.	.	.	.	.	.	.	16eee\	.	.
.	.	.	.	.	.	.	.	.	.	.	.	.	8G#X/J	8G#\J	.	.	.	.	.	.	16ddd\	.	.
.	.	.	.	.	.	.	.	.	.	.	.	.	.	.	.	.	.	.	.	.	16bb\JJ	.	.
*	*	*	*	*	*	*	*	*v	*v	*	*	*	*	*	*	*	*	*	*	*	*	*	*
=82	=82	=82	=82	=82	=82	=82	=82	=82	=82	=82	=82	=82	=82	=82	=82	=82	=82	=82	=82	=82	=82	=82
!	!	!	!	!	!	!	!	!	!	!	!	!	!	!	!	!	!	!	!	!LO:TX:a:t=Piccolo	!	!
1r	.	8A\	.	8e 8c\	.	8ee 8cc\	.	8e 8A\	.	8a 8c\	.	8A/L	8A\L	.	8ee 8cc\	.	8aa 8ee\	.	1ryy	8aa/	(16ccc\LL	.
.	.	.	.	.	.	.	.	.	.	.	.	.	.	.	.	.	.	.	.	.	16ddd\	.
.	.	8r	.	8r	.	8r	.	8r	.	8r	.	8G/	8Gn\	.	8r	.	8r	.	.	8ryy	16ccc\	.
.	.	.	.	.	.	.	.	.	.	.	.	.	.	.	.	.	.	.	.	.	16bb\JJ	.
.	.	4r	.	4r	.	4r	.	4r	.	4r	.	8F/	8Fn\	.	4r	.	4r	.	.	4rcccyy	16aa\LL	.
.	.	.	.	.	.	.	.	.	.	.	.	.	.	.	.	.	.	.	.	.	16bb\	.
.	.	.	.	.	.	.	.	.	.	.	.	8E/J	8E\J	.	.	.	.	.	.	.	16aa\	.
.	.	.	.	.	.	.	.	.	.	.	.	.	.	.	.	.	.	.	.	.	16gg\JJ	.
.	.	2r	.	2r	.	2r	.	2r	.	2r	.	8D/L	8D\L	.	2r	.	2r	.	.	2raayy	16ff\LL	.
.	.	.	.	.	.	.	.	.	.	.	.	.	.	.	.	.	.	.	.	.	16gg\	.
.	.	.	.	.	.	.	.	.	.	.	.	8C/	8C\	.	.	.	.	.	.	.	16ff\	.
.	.	.	.	.	.	.	.	.	.	.	.	.	.	.	.	.	.	.	.	.	16ee\JJ	.
.	.	.	.	.	.	.	.	.	.	.	.	8BB/	8BB\	.	.	.	.	.	.	.	16dd\LL	.
.	.	.	.	.	.	.	.	.	.	.	.	.	.	.	.	.	.	.	.	.	16ee\	.
.	.	.	.	.	.	.	.	.	.	.	.	8AA/J)	8AA\J	.	.	.	.	.	.	.	16dd\	.
.	.	.	.	.	.	.	.	.	.	.	.	.	.	.	.	.	.	.	.	.	16cc\JJ)	.
=83	=83	=83	=83	=83	=83	=83	=83	=83	=83	=83	=83	=83	=83	=83	=83	=83	=83	=83	=83	=83	=83	=83
*	*	*	*	*	*	*	*	*	*	*	*	*	*	*	*	*	*^	*	*	*	*	*
!	!	!	!	!LO:TX:a:t=Tromboni	!	!	!	!	!	!	!	!	!	!	!	!	!	!	!	!	!	!	!
1r	.	1r	.	8.BL 8.BB^/	.	1r	.	1r	.	1r	.	4G/	4G\	.	1r	.	2r	2ryy	.	1ryy	16dd/LL	16dd\LL	.
.	.	.	.	.	.	.	.	.	.	.	.	.	.	.	.	.	.	.	.	.	16cc/	16cc\	.
.	.	.	.	.	.	.	.	.	.	.	.	.	.	.	.	.	.	.	.	.	16dd/	16dd\	.
.	.	.	.	16cJk 16C/	.	.	.	.	.	.	.	.	.	.	.	.	.	.	.	.	16ee/JJ	16ee\JJ	.
.	.	.	.	8.dL 8.D/	.	.	.	.	.	.	.	4r	4ryy	.	.	.	.	.	.	.	16ff/LL	16ff\LL	.
.	.	.	.	.	.	.	.	.	.	.	.	.	.	.	.	.	.	.	.	.	16ee/	16ee\	.
.	.	.	.	.	.	.	.	.	.	.	.	.	.	.	.	.	.	.	.	.	16ff/	16ff\	.
.	.	.	.	16eJk 16E/	.	.	.	.	.	.	.	.	.	.	.	.	.	.	.	.	16gg/JJ	16gg\JJ	.
!	!	!	!	!	!	!	!	!	!	!	!	!	!	!	!	!	!	!	!	!	!LO:TX:a:t=a due	!	!
.	.	.	.	8fL 8F^/	.	.	.	.	.	.	.	2r	2ryy	.	.	.	16a'/LL	16a\LL	.	.	16aa\LL	2ryy	.
.	.	.	.	.	.	.	.	.	.	.	.	.	.	.	.	.	16a#X'/	16a#\	.	.	16aa#X\	.	.
.	.	.	.	8f#X 8F#X^/	.	.	.	.	.	.	.	.	.	.	.	.	16b'/	16b\	<	.	16bb\	.	<
.	.	.	.	.	.	.	.	.	.	.	.	.	.	.	.	.	16cc'/JJ	16cc\JJ	.	.	16ccc\JJ	.	.
.	.	.	.	8g 8G^/	.	.	.	.	.	.	.	.	.	.	.	.	16cc#X'/LL	16cc#\LL	.	.	16ccc#X\LL	.	.
.	.	.	.	.	.	.	.	.	.	.	.	.	.	.	.	.	16dd'/	16dd\	.	.	16ddd\	.	.
.	.	.	.	8g#XJ 8G#X^/	.	.	.	.	.	.	.	.	.	.	.	.	16dd#X'/	16dd#\	.	.	16ddd#X\	.	.
.	.	.	.	.	.	.	.	.	.	.	.	.	.	.	.	.	16ee'/JJ	16ee\JJ	.	.	16eee\JJ	.	.
=84	=84	=84	=84	=84	=84	=84	=84	=84	=84	=84	=84	=84	=84	=84	=84	=84	=84	=84	=84	=84	=84	=84	=84
*	*	*	*	*	*	*	*	*^	*	*^	*	*	*	*	*	*	*	*	*	*	*	*	*
1r	.	1r	.	8a 8A\	.	8r	f	8r	8ryy	f	8r	8ryy	f	8r	8ryy	ff	8r	.	8ff/	8ff\	[	1ryy	8fff\	8ryy	[ ff
.	.	.	.	8r	.	8ffL 8b\	.	8d'/L	8d\L	.	8f'/L	8f\L	.	8G#X'/L	8G#\L	.	8ffL 8b\	.	8bbL 8ff\	8ryy	.	.	8ddd'/L	8ff'\L	.
.	.	.	.	4r	.	8ff 8cc\	.	8cX'/	8c\	.	8f'/	8f\	.	8A'/	8A\	.	8ff 8cc\	.	8ccc 8ff\	4ryy	.	.	8ccc'/	8ff'\	.
.	.	.	.	.	.	8ffJ 8b\	.	8d'/J	8d\J	.	8f'/J	8f\J	.	8G#'/J	8G#\J	.	8ffJ 8b\	.	8bbJ 8ff\	.	.	.	8ddd'/J	8ff'\J	.
.	.	.	.	2r	.	8ffL 8cc\	.	8c'/L	8c\L	.	8f'/L	8f\L	.	8A/L	8A\L	.	8ffL 8cc\	.	8cccL 8ff\	2ryy	.	.	8ccc'/L	8ff'\L	.
.	.	.	.	.	.	8ff 8b\	.	8d'/	8d\	.	8f'/	8f\	.	8G#/	8G#\	.	8ff 8b\	.	8bb 8ff\	.	.	.	8ddd'/	8ff'\	.
.	.	.	.	.	.	8ff 8cc\	.	8c'/	8c\	.	8f'/	8f\	.	8A/	8A\	.	8ff 8cc\	.	8ccc 8ff\	.	.	.	8ccc'/	8ff'\	.
!	!	!	!	!	!	!	!	!	!	!	!	!	!	!	!	!	!	!	!LO:TX:b:B:t=X	!	!	!	!	!	!
.	.	.	.	.	.	8ffJ 8b\	.	8d'/J	8d\J	.	8f'/J	8f\J	.	8G#/J	8G#\J	.	8ffJ 8b\	.	8bbJ 8ff\	.	.	.	8ddd'/J	8ff'\J	.
*	*	*	*	*	*	*	*	*	*	*	*	*	*	*	*	*	*	*	*v	*v	*	*	*	*	*
=85	=85	=85	=85	=85	=85	=85	=85	=85	=85	=85	=85	=85	=85	=85	=85	=85	=85	=85	=85	=85	=85	=85	=85	=85
1r	.	1r	.	1r	.	8ff 8cc\	.	8d/	8d\	.	4a^/	4f\	.	8A/	8A\	.	8ff 8cc\	.	4ccc 4ff\	.	1ryy	4ccc^\	4ff\	.
.	.	.	.	.	.	8r	.	8r	8r	.	.	.	.	8r	8ryy	.	8r	.	.	.	.	.	.	.
.	.	.	.	.	.	4r	.	8.b-X^/L	4r	.	8.g^/L	8.g\L	.	8.G/L	8.G\L	.	8.bb-XL 8.cc#X^\	.	8.bb-XL 8.ee^\	.	.	8.ccc#X^/L	8.ccc#\L	.
.	.	.	.	.	.	.	.	16a/Jk	.	.	16f/Jk	16f\Jk	.	16F/Jk	16F\Jk	.	16aaJk 16dd\	.	16aaJk 16ff\	.	.	16ddd/Jk	16ddd\Jk	.
.	.	.	.	.	.	2r	.	4a^/	2r	.	4f^/	4f\	.	4F/	4F^\	.	4aa 4dd^\	.	4aa 4ff^\	.	.	4ddd^/	4ddd\	.
.	.	.	.	.	.	.	.	8.g^/L	.	.	8.e^/L	8.e\L	.	8.E/L	8.E\L	.	8.aa#XL 8.gg^\	.	8.ggL 8.cc#X^\	.	.	8.aa#X^/L	8.aa#\L	.
.	.	.	.	.	.	.	.	16fX/Jk	.	.	16d/Jk	16d\Jk	.	16D/Jk	16D\Jk	.	16bbnJk 16ff\	.	16ffJk 16dd\	.	.	16bb/Jk	16bb\Jk	.
*	*	*	*	*	*	*	*	*v	*v	*	*	*	*	*	*	*	*	*	*	*	*	*	*	*
=86	=86	=86	=86	=86	=86	=86	=86	=86	=86	=86	=86	=86	=86	=86	=86	=86	=86	=86	=86	=86	=86	=86	=86
*	*	*	*	*	*	*^	*	*	*	*	*	*	*	*	*	*^	*	*^	*	*	*	*	*
1r	.	1r	.	1r	.	2r	1r	.	4fX^/	.	4d^/	4d\	.	4D/	4D\	.	4bb 4ff^\	4ryy	.	4ff 4dd^\	2ryy	.	1ryy	4bb^/	4bb\	.
.	.	.	.	.	.	.	.	.	8.e^/L	.	8.c^/L	8.c\L	.	8.C/L	8.C\L	.	8.ff#X^/L	8.a\L	.	8.ff#XL 8.ee-X^\	.	.	.	8.aa^/L	8.ff#X\L	.
.	.	.	.	.	.	.	.	.	16d/Jk	.	16B/Jk	16BX\Jk	.	16BB/Jk	16BB\Jk	.	16gg/Jk	16dd\Jk	.	16ggJk 16dd\	.	.	.	16ddd/Jk	16gg\Jk	.
.	.	.	.	.	.	8r	.	f	8d^/	.	8B/	8B\	.	8BB/	8BB\	.	8gg^/	8dd\	.	8gg 8dd\	8ryy	f	.	8ddd/	8gg\	f
.	.	.	.	.	.	(24g^/LL	.	.	8r	.	8r	8ryy	.	(24G/LL	24G\LL	f	(24gg^/LL	8r	f	(24gg^/LL	8r	.	.	8rccc	(24gg^\LL	.
.	.	.	.	.	.	24a/	.	.	.	.	.	.	.	24A/	24A\	.	24aa/	.	.	24aa/	.	.	.	.	24aa\	.
.	.	.	.	.	.	24g/JJ	.	.	.	.	.	.	.	24G/JJ	24G\JJ	.	24gg/JJ	.	.	24gg/JJ	.	.	.	.	24gg\JJ	.
.	.	.	.	.	.	8f#X/L)	.	.	4r	.	4r	4ryy	.	8F#X/L	8F#\L	.	8ff#/L)	4r	.	8ff#/L)	4r	.	.	4rccc	8ff#\L)	.
!	!	!	!	!	!	!	!	!	!	!	!	!	!	!	!	!	!LO:TX:b:t=|:problem	!	!	!LO:TX:b:t=|:problem	!	!	!	!	!	!
.	.	.	.	.	.	8g/J	.	.	.	.	.	.	.	8G/J)	8G\J	.	8gg/J	.	.	8gg/J	.	.	.	.	8gg\J	.
*	*	*	*	*	*	*	*	*	*	*	*v	*v	*	*	*	*	*	*	*	*	*	*	*	*	*	*
*	*	*	*	*	*	*v	*v	*	*	*	*	*	*v	*v	*	*	*	*	*	*	*	*	*	*	*
=87	=87	=87	=87	=87	=87	=87	=87	=87	=87	=87	=87	=87	=87	=87	=87	=87	=87	=87	=87	=87	=87	=87	=87
*	*	*	*	*	*	*	*	*^	*	*	*	*	*	*	*	*	*	*	*	*	*	*	*
!	!	!	!	!	!	!	!	!	!	!	!	!	!	!	!LO:TX:a:t=col Piccolo.	!	!	!	!	!	!	!	!	!
!	!	!	!	!	!	!	!	!	!	!	!	!	!	!	!LO:TX:t=P:problem=t. 87-88 ukryte	!	!	!	!	!	!	!	!	!
!	!	!	!	!LO:TX:a:t=tutta la forza	!	!	!	!	!	!	!LO:TX:a:t=tutta la forza	!	!	!	!LO:TX:a:t=a due	!	!	!LO:TX:a:t=a due	!	!	!	!LO:TX:a:t=tutta la forza	!	!
4GGT/	.	4G\	.	4d 4B\	.	4ff 4dd\	.	4d 4B/	2ryy	.	1ryy	.	4B 4GG/	.	4bb^/	4bb\	.	4bb^/	4bb\	.	1ryy	4bb^/	4bb\	.
!	!	!	!	!	!	!	!	!	!	!	!	!	!	!	!	!	!	!LO:TX:t=P:problem=frag. t. 87-88 ukryte	!	!	!	!	!	!
!	!	!	!	!	!	!	!	!	!	!	!	!	!	!	!	!	!	!LO:TX:a:t=col Piccolo	!	!	!	!	!	!
8.GG/L	.	8.G\L	.	8.dL 8.B\	.	8.ffL 8.dd\	.	8.dL 8.B/	.	.	.	.	8.BL 8.GG/	.	8.aa/L	8.aa\L	.	8.aa/L	8.aa\L	.	.	8.aa/L	8.aa\L	.
16GG/Jk	.	16G\Jk	.	16dJk 16B\	.	16ffJk 16dd\	.	16dJk 16B/	.	.	.	.	16BJk 16GG/	.	16gg/Jk	16gg\Jk	.	16gg/Jk	16gg\Jk	.	.	16gg/Jk	16gg\Jk	.
4GG/	.	4G\	.	4f 4d\	.	4dd 4b/	.	4d/	4d\	.	.	.	4d 4GG/	.	(8.fffL 8.ff\	2ryy	.	(8.fffL 8.ff\	2ryy	.	.	(8.fffL 8.ff\	2ryy	.
.	.	.	.	.	.	.	.	.	.	.	.	.	.	.	32gggLL 32gg\	.	.	32gggLL 32gg\	.	.	.	32gggLL 32gg\	.	.
.	.	.	.	.	.	.	.	.	.	.	.	.	.	.	32fffJJJ 32ff\	.	.	32fffJJJ 32ff\	.	.	.	32fffJJJ 32ff\	.	.
4GG/	.	4G\	.	4d 4G\	.	4dd 4b/	.	4d/	4d\	.	.	.	4d 4GG/	.	8eeeL 8ee\)	.	.	8eeeL 8ee\)	.	.	.	8eeeL 8ee\)	.	.
.	.	.	.	.	.	.	.	.	.	.	.	.	.	.	16r	.	.	16r	.	.	.	16r	.	.
.	.	.	.	.	.	.	.	.	.	.	.	.	.	.	16fffJk 16ff\	.	.	16fffJk 16ff\	.	.	.	16fffJk 16ff\	.	.
*	*	*	*	*	*	*	*	*	*	*	*	*	*	*	*v	*v	*	*	*	*	*	*v	*v	*
*	*	*	*	*	*	*	*	*	*	*	*	*	*	*	*	*	*v	*v	*	*	*	*
=88	=88	=88	=88	=88	=88	=88	=88	=88	=88	=88	=88	=88	=88	=88	=88	=88	=88	=88	=88	=88	=88
*	*	*	*	*	*	*^	*	*	*	*	*^	*	*	*	*	*	*	*	*	*	*
4GGT/	.	4G\	.	4e 4c\	.	4ee 4cc\	2ryy	.	4e/	4cX\	.	4g/	4g\	.	4c 4GG/	.	4aaa 4aa^\	.	4aaa 4aa^\	.	1ryy	4aaa 4aa^\	.
8.GG/L	.	8.G\L	.	8.eL 8.c\	.	8.eeL 8.cc\	.	.	8.e/L	8.c\L	.	8.g/L	8.g\L	.	8.GL 8.GG/	.	8.gggL 8.gg\	.	8.gggL 8.gg\	.	.	8.gggL 8.gg\	.
16GG/Jk	.	16G\Jk	.	16eJk 16c\	.	16eeJk 16cc\	.	.	16e/Jk	16c\Jk	.	16g/Jk	16g\Jk	.	16GJk 16GG/	.	16fffJk 16ff\	.	16fffJk 16ff\	.	.	16fffJk 16ff\	.
4GG/	.	4G\	.	4e 4c#X^\	.	4gg 4b-X\	4ryy	.	4e/	4c#\	.	4b- 4g^\	2ryy	.	4B-X 4GG/	.	(8.eeeL 8.ee^\	.	(8.eeeL 8.ee^\	.	.	(8.eeeL 8.ee^\	.
.	.	.	.	.	.	.	.	.	.	.	.	.	.	.	.	.	32fffLL 32ff\	.	32fffLL 32ff\	.	.	32fffLL 32ff\	.
.	.	.	.	.	.	.	.	.	.	.	.	.	.	.	.	.	32eeeJJJ 32ee\	.	32eeeJJJ 32ee\	.	.	32eeeJJJ 32ee\	.
4GG/	.	4G\	.	4e 4c#\	.	4g/	4b-\	.	4e/	4c#\	.	4b- 4g\	.	.	4B- 4GG/	.	8ddd#XL 8dd#X\)	.	8ddd#XL 8dd#X\)	.	.	8ddd#XL 8dd#X\)	.
.	.	.	.	.	.	.	.	.	.	.	.	.	.	.	.	.	16r	.	16r	.	.	16r	.
.	.	.	.	.	.	.	.	.	.	.	.	.	.	.	.	.	16eeeJk 16ee\	.	16eeeJk 16ee\	.	.	16eeeJk 16ee\	.
=89	=89	=89	=89	=89	=89	=89	=89	=89	=89	=89	=89	=89	=89	=89	=89	=89	=89	=89	=89	=89	=89	=89	=89
*	*	*	*	*^	*	*	*	*	*	*	*	*	*	*	*	*	*	*	*	*	*	*^	*
!	!	!	!	!	!	!	!	!	!	!	!	!	!	!	!	!	!	!LO:TX:t=P:problem=t. 89 ukryty	!	!	!	!	!	!	!
!	!	!	!	!	!	!	!	!	!	!	!	!	!	!	!	!	!	!LO:TX:a:t=Col Oboi	!	!	!	!	!	!	!
4GGT/	.	4G\	.	4d/	4d\	.	4dd/	4bn\	.	4d/	4d\	.	4bX 4g\	4ryy	.	4Bn 4GG/	.	4gg 4b^\	.	4gg 4b^\	.	1ryy	4ggg 4gg\	4ryy	.
8.GG/L	.	8.G\L	.	8.dL 8.B\	4ryy	.	8.ffL 8.dd\	4ryy	.	8.gL 8.G\	4ryy	.	8.g/L	8.g\L	.	8.dL 8.B\	.	8.ffL 8.dd\	.	8.ffL 8.dd\	.	.	8.ddd/L	8.ff\L	.
16GG/Jk	.	16G\Jk	.	16eJk 16c\	.	.	16eeJk 16cc\	.	.	16gJk 16G\	.	.	16g/Jk	16g\Jk	.	16eJk 16c\	.	16eeJk 16cc\	.	16eeJk 16cc\	.	.	16ccc/Jk	16ee\Jk	.
8GG/L	.	8G\	.	8f 8d\	2ryy	.	8dd 8b\	2ryy	.	8g 8G\	2ryy	.	8g/	8g\	.	8f 8d\	.	8dd 8b\	.	8dd 8b\	.	.	8bb/	8dd\	.
8GG/	.	8r	.	8r	.	.	8r	.	.	8gL 8G'\	.	p	8g'/L	8g\L	p	8BL 8G'\	p	8bL 8g\	p	8bL 8g\	p	.	8ggL 8b'\	8ryy	p
8GG/	.	4r	.	4r	.	.	4r	.	.	8g 8G'\	.	.	8g'/	8g\	.	8c 8A'\	.	8cc 8a\	.	8cc 8a\	.	.	8aa 8cc'\	4ryy	.
8GG/J	.	.	.	.	.	.	.	.	.	8gJ 8G'\	.	.	8g'/J	8g\J	.	8c#XJ 8A#X'\	.	8cc#XJ 8a#X\	.	8cc#XJ 8a#X\	.	.	8aa#XJ 8cc#X'\	.	.
*	*	*	*	*v	*v	*	*	*	*	*	*	*	*	*	*	*	*	*	*	*	*	*	*v	*v	*
*	*	*	*	*	*	*v	*v	*	*	*	*	*	*	*	*	*	*	*	*	*	*	*	*
=90	=90	=90	=90	=90	=90	=90	=90	=90	=90	=90	=90	=90	=90	=90	=90	=90	=90	=90	=90	=90	=90	=90
*	*	*	*	*	*	*	*	*	*	*	*	*	*	*clefC4	*	*	*	*	*	*	*	*
8GG/L	<	1r	.	1r	.	1r	.	8g/	8G\L	<	8b'/L	8g\	.	8dL 8B'\	.	8ddL 8b'\	.	8ddL 8b'\	.	1ryy	8bbL 8dd'\	.
8GG/	.	.	.	.	.	.	.	8r	8G\	.	8a'/	8r	.	8e 8c'\	.	8ee 8cc'\	.	8ee 8cc'\	.	.	8ccc 8ee'\	<
8GG/	.	.	.	.	.	.	.	4r	8G\	.	8g'/	4r	<	8f 8d'\	<	8ff 8dd'\	<	8ff 8dd'\	<	.	8ddd 8ff'\	.
8GG/J	.	.	.	.	.	.	.	.	8G\J	.	8a'/J	.	.	8f#XJ 8c'\	.	8ff#XJ 8dd'\	.	8ff#XJ 8cc'\	.	.	8cccJ 8ff#X'\	.
8GG/L	.	.	.	.	.	.	.	2r	8G\L	.	8g'/L	2r	.	8gL 8B'\	.	8ggL 8dd'\	.	8ggL 8b'\	.	.	8bbL 8gg'\	.
8GG/	.	.	.	.	.	.	.	.	8G\	.	8f'/	.	.	8f#X 8d'\	.	8ffn 8dd'\	.	8gg#X 8b'\	.	.	8bb 8gg#X'\	.
8GG/	.	.	.	.	.	.	.	.	8G\	.	8f'/	.	.	8a 8A'\	[	8ff 8dd'\	.	8aa 8dd'\	.	.	8ccc 8aa'\	.
8GG/J	[[	.	.	.	.	.	.	.	8G\J	.	8g'/J	.	[	8gnJ 8B'\	.	8ffJ 8dd'\	[[	8bbJ 8dd\	[[	.	8fffJ 8bb'\	[[
*	*	*	*	*	*	*	*	*v	*v	*	*	*	*	*	*	*	*	*	*	*	*	*
*	*	*	*	*	*	*	*	*	*	*v	*v	*	*	*	*	*	*	*	*	*	*
=91!|:	=91!|:	=91!|:	=91!|:	=91!|:	=91!|:	=91!|:	=91!|:	=91!|:	=91!|:	=91!|:	=91!|:	=91!|:	=91!|:	=91!|:	=91!|:	=91!|:	=91!|:	=91!|:	=91!|:	=91!|:
*	*	*	*	*	*	*	*	*	*	*	*	*^	*	*	*	*	*	*	*	*
32C/LLL	.	2C^^/	ff	2e 2G^^\	ff	2ee 2cc^^\	ff	2e 2cX^^\	[ ff	2g 2G^^/	ff	4.c/	4.c\	ff	4.ee 4.cc\	ff	4.ccc 4.ee\	ff	1ryy	4.eee 4.ccc\	ff
32C/	.	.	.	.	.	.	.	.	.	.	.	.	.	.	.	.	.	.	.	.	.
32C/	.	.	.	.	.	.	.	.	.	.	.	.	.	.	.	.	.	.	.	.	.
32C/	.	.	.	.	.	.	.	.	.	.	.	.	.	.	.	.	.	.	.	.	.
32C/	.	.	.	.	.	.	.	.	.	.	.	.	.	.	.	.	.	.	.	.	.
32C/	.	.	.	.	.	.	.	.	.	.	.	.	.	.	.	.	.	.	.	.	.
32C/	.	.	.	.	.	.	.	.	.	.	.	.	.	.	.	.	.	.	.	.	.
32C/JJJ	.	.	.	.	.	.	.	.	.	.	.	.	.	.	.	.	.	.	.	.	.
8C/	.	.	.	.	.	.	.	.	.	.	.	.	.	.	.	.	.	.	.	.	.
8r	.	.	.	.	.	.	.	.	.	.	.	8G/	8G\	.	8gg 8cc\	.	8gg 8cc\	.	.	8ccc 8gg\	.
32C/LLL	.	2C^^/	.	2e 2G\	.	2ee 2cc^^\	.	2e 2c^^\	.	2g 2G^^/	.	4.C/	4.C\	.	4.ee 4.cc\	.	4.ccc 4.ee\	.	.	4.eee 4.ccc\	.
32C/	.	.	.	.	.	.	.	.	.	.	.	.	.	.	.	.	.	.	.	.	.
32C/	.	.	.	.	.	.	.	.	.	.	.	.	.	.	.	.	.	.	.	.	.
32C/	.	.	.	.	.	.	.	.	.	.	.	.	.	.	.	.	.	.	.	.	.
32C/	.	.	.	.	.	.	.	.	.	.	.	.	.	.	.	.	.	.	.	.	.
32C/	.	.	.	.	.	.	.	.	.	.	.	.	.	.	.	.	.	.	.	.	.
32C/	.	.	.	.	.	.	.	.	.	.	.	.	.	.	.	.	.	.	.	.	.
32C/JJJ	.	.	.	.	.	.	.	.	.	.	.	.	.	.	.	.	.	.	.	.	.
8C/	.	.	.	.	.	.	.	.	.	.	.	.	.	.	.	.	.	.	.	.	.
8r	.	.	.	.	.	.	.	.	.	.	.	8E/	8E\	.	8gg 8cc\	.	8gg 8cc\	.	.	8ccc 8gg\	.
=92	=92	=92	=92	=92	=92	=92	=92	=92	=92	=92	=92	=92	=92	=92	=92	=92	=92	=92	=92	=92	=92
8C/L	.	8C^^/	.	8e 8G^^\	.	8eeL 8cc'\	.	8r	.	8r	.	8C'/L	8C\L	.	8eeL 8cc'\	.	8cccL 8ee\	.	1ryy	8eeeL 8ccc'\	.
8GG/J	.	8r	.	8r	.	8ccJ 8g'\	.	8e 8cX\	.	8g 8G/	.	8E'/J	8E\J	.	8ggJ 8cc'\	.	8ggJ 8cc\	.	.	8cccJ 8gg'\	.
8C/L	.	8C^^/	.	8e 8G^^\	.	8eeL 8cc'\	.	8r	.	8r	.	8C'/L	8C\L	.	8eeL 8cc'\	.	8cccL 8ee\	.	.	8eeeL 8ccc'\	.
8GG/J	.	8r	.	8r	.	8ccJ 8g'\	.	8e 8cX\	.	8g 8G/	.	8E'/J	8E\J	.	8ggJ 8cc'\	.	8ggJ 8cc\	.	.	8cccJ 8gg'\	.
8C/L	.	8C^^/	.	8e 8G^^\	.	8eeL 8cc'\	.	8r	.	8r	.	8C'/L	8C\L	.	8eeL 8cc'\	.	8cccL 8ee\	.	.	8eeeL 8ccc'\	.
8GG/J	.	8r	.	8r	.	8ccJ 8g'\	.	8e 8cX\	.	8g 8G/	.	8E'/J	8E\J	.	8ggJ 8cc'\	.	8ggJ 8cc\	.	.	8cccJ 8gg'\	.
8C/L	.	8C^^/	.	8e 8G^^\	.	8eeL 8cc'\	.	8r	.	8r	.	8C'/L	8C\L	.	8eeL 8cc'\	.	8cccL 8ee\	.	.	8eeeL 8ccc'\	.
8GG/J	.	8r	.	8r	.	8ccJ 8g'\	.	8e 8cX\	.	8g 8G/	.	8E'/J	8E\J	.	8ggJ 8cc'\	.	8ggJ 8cc\	.	.	8cccJ 8gg'\	.
*	*	*	*	*	*	*	*	*	*	*	*	*v	*v	*	*	*	*	*	*	*	*
=93:|!	=93:|!	=93:|!	=93:|!	=93:|!	=93:|!	=93:|!	=93:|!	=93:|!	=93:|!	=93:|!	=93:|!	=93:|!	=93:|!	=93:|!	=93:|!	=93:|!	=93:|!	=93:|!	=93:|!	=93:|!
8C/L	.	8C/	.	8e 8G\	.	8eeL 8cc\	.	8eL 8cX\	.	8gL 8G/	.	8C/L	.	8ggL 8ee\	.	8cccL 8ee\	.	1ryy	8eeeL 8ccc\	.
16r	.	8r	.	8r	.	16r	.	16r	.	16r	.	16r	.	16r	.	16r	.	.	16r	.
16C/Jk	.	.	.	.	.	16eeJk 16cc\	.	16eJk 16c\	.	16gJk 16G/	.	16cJk 16C/	.	16ggJk 16ee\	.	16ggJk 16ee\	.	.	16eeeJk 16ccc\	.
8C/L	.	4r	.	4r	.	8eeL 8cc\	.	8eL 8cX\	.	8gL 8G/	.	8cL 8C/	.	8ggL 8ee\	.	8ggL 8ee\	.	.	8eeeL 8ccc\	.
16r	.	.	.	.	.	16r	.	16r	.	16r	.	16r	.	16r	.	16r	.	.	16r	.
16C/Jk	.	.	.	.	.	16eeJk 16cc\	.	16eJk 16c\	.	16gJk 16G/	.	16cJk 16C/	.	16ggJk 16ee\	.	16ggJk 16ee\	.	.	16eeeJk 16ccc\	.
8C/L	.	2ryy	.	2ryy	.	8eeL 8cc\	.	8eL 8cX\	.	8gL 8G/	.	8cL 8C/	.	8ggL 8ee\	.	8ggL 8ee\	.	.	8eeeL 8ccc\	.
16r	.	.	.	.	.	16r	.	16r	.	16r	.	16r	.	16r	.	16r	.	.	16r	.
16C/Jk	.	.	.	.	.	16eeJk 16cc\	.	16eJk 16c\	.	16gJk 16G/	.	16cJk 16C/	.	16ggJk 16ee\	.	16ggJk 16ee\	.	.	16eeeJk 16ccc\	.
8C/L	.	.	.	.	.	8eeL 8cc\	.	8eL 8cX\	.	8gL 8G/	.	8cL 8C/	.	8ggL 8ee\	.	8ggL 8ee\	.	.	8eeeL 8ccc\	.
16r	.	.	.	.	.	16r	.	16r	.	16r	.	16r	.	16r	.	16r	.	.	16r	.
16C/Jk	.	.	.	.	.	16eeJk 16cc\	.	16eJk 16c\	.	16gJk 16G/	.	16cJk 16C/	.	16ggJk 16ee\	.	16ggJk 16ee\	.	.	16eeeJk 16ccc\	.
*	*	*	*	*	*	*	*	*	*	*	*	*clefF4	*	*	*	*	*	*	*	*
=94	=94	=94	=94	=94	=94	=94	=94	=94	=94	=94	=94	=94	=94	=94	=94	=94	=94	=94	=94	=94
!	!	!	!	!	!	!	!	!	!	!	!	!	!LO:HP:a	!	!	!	!	!	!	!
1C	> ]]	1c	> ]]	1g 1e	> ]]	1gg 1ee	.	1e 1cX	> ]]	1g 1G	> ]]	1C 1CC	> ]]	1gg 1ee	> ]]	1ccc 1ee	> ]]	1ryy	1ggg 1eee	> ]]
=95	=95	=95	=95	=95	=95	=95	=95	=95	=95	=95	=95	=95	=95	=95	=95	=95	=95	=95	=95	=95
*^	*	*	*	*	*	*^	*	*	*	*	*	*	*	*	*	*	*	*	*	*
8C/	8C\	.	8C/	.	8e 8G\	.	8ee/	8cc\	.	8e 8cX\	.	8g 8G/	.	8c 8C\	.	8ee 8cc\	.	8gg 8ee\	.	1ryy	8eee 8ccc\	.
8r	8ryy	.	8r	.	8r	.	8r	8ryy	.	8r	.	8r	.	8r	.	8r	.	8r	.	.	8r	.
4r	4ryy	.	4r	.	4r	.	4r	4ryy	.	4r	.	4r	.	4r	.	4r	.	4r	.	.	4r	.
2r	2ryy	.	2r	.	2r	.	2r	2ryy	.	2r	.	2r	.	2r	.	2r	.	2r	.	.	2r	.
*v	*v	*	*	*	*	*	*v	*v	*	*	*	*	*	*	*	*	*	*	*	*	*	*
==	==	==	==	==	==	==	==	==	==	==	==	==	==	==	==	==	==	==	==	==
*-	*-	*-	*-	*-	*-	*-	*-	*-	*-	*-	*-	*-	*-	*-	*-	*-	*-	*-	*-	*-
!!!system-decoration: s1,s2,s3,s4,s5[(s6,s7)]s8[(s9,s10)]s11
!!!RDF**kern: > = above
!!!RDF**kern: < = below
!!!RDF**kern: @ = marked note, color=blue
!!!RDF**dynam: > = "dim", fontstyle= "bold-italic"
!!!RDF**dynam: < = "cresc", fontstyle= "bold-italic"
!!!RDF**kern: | = vertical stroke
!!!RDF**kern: N = linked
!!!RDF**kern: i = editorial accidental
!!!ENC: Marcin Jachim
!!!END: 2021-08-10
!!!EED: Wojciech Jakubiak-Danek
!!!EEV: 2021-10-15
!!!YEC: Copyright 2022 Narodowy Instytut Fryderyka Chopina (https://polishscores.org)
!!!YEM: License CC-BY-4.0 (https://creativecommons.org/licenses/by/4.0)
